!!!!SEGMENT: pl-sa--l-1643--036_anonim--beata-es-virgo-maria-dei-genitrix.krn
!!!cenid: 16xx:1391
!!!COM: Anonim
!!!COM-rismID:
!!!CDT:
!!!CNT:
!!!OTL: Beata es virgo Maria Dei genitrix
!!!PDT:
!!!AGN: Sacred
!!!SMS-siglum: PL-SA
!!!SMS-shelfmark: L 1643
!!!SMS-shelfwork: 036 W
!!!SMS-variant:
!!!SMS-altvar:
!!!NIFC-rismSourceID: 1001063284
!!!NIFC-islandoraID:
!!!URL-pdf-islandora:
!!!URL-scan:
!!!ONB-nifc: UWAGA: 8 ksiąg. Primi chori: 1mus Cantus (61-63), C 2dus (61-63), C 3tius (60-62), Bassus (57-59); Secondi chori: Primus Cantus (59-61), C 2dus (60-62), Altus (60-62), Bassus (60-62). UWAGA: metrum 2/2 i 3/2. Nie dodawać pustych linii, chyba że w rękopisie pojawiają się dodatkowe oznaczenia dotyczące pełnej obsady (a 4, a 8 itp.)
!!!AIN: 8 empty
!!!key:
**kern	**text	**kern	**text	**kern	**text	**kern	**text	**kern	**text	**kern	**text	**kern	**text	**kern	**text
*part8	*part8	*part7	*part7	*part6	*part6	*part5	*part5	*part4	*part4	*part3	*part3	*part2	*part2	*part1	*part1
*staff8	*staff8	*staff7	*staff7	*staff6	*staff6	*staff5	*staff5	*staff4	*staff4	*staff3	*staff3	*staff2	*staff2	*staff1	*staff1
*group2	*	*group2	*	*group2	*	*group2	*	*group1	*	*group1	*	*group1	*	*group1	*
*Iempty	*	*Iempty	*	*Iempty	*	*Iempty	*	*Iempty	*	*Iempty	*	*Iempty	*	*Iempty	*
*I"Baſsus 2di Chori	*	*I"Altus secundi Chori.	*	*I"Cantus 2dus Secundi Chori.	*	*I"Primus Cantus 2di Chori	*	*I"Bassus Primi Chori.	*	*I"Cantus 3tius Primi Chori	*	*I"Cantus 2dus Primi Chori.	*	*I"Im(us) Cantus Primi Chori	*
*I'Coro 2 B	*	*I'Coro 2 A	*	*I'Coro 2 S 2	*	*I'Coro 2 S 1	*	*I'Coro 1 B	*	*I'Coro 1 S 3	*	*I'Coro 1 S 2	*	*I'Coro 1 S 1	*
*clefC3	*	*clefC2	*	*clefC1	*	*clefG2	*	*clefC3	*	*clefC2	*	*clefC1	*	*clefG2	*
*k[b-]	*	*k[b-]	*	*k[b-]	*	*k[b-]	*	*k[b-]	*	*k[b-]	*	*k[b-]	*	*k[b-]	*
*g:	*	*g:	*	*g:	*	*g:	*	*g:	*	*g:	*	*g:	*	*g:	*
*M2/1	*	*M2/1	*	*M2/1	*	*M2/1	*	*M2/1	*	*M2/1	*	*M2/1	*	*M2/1	*
*met(C|)	*	*met(C|)	*	*met(C|)	*	*met(C|)	*	*met(C|)	*	*met(C|)	*	*met(C|)	*	*met(C|)	*
=1-	=1-	=1-	=1-	=1-	=1-	=1-	=1-	=1-	=1-	=1-	=1-	=1-	=1-	=1-	=1-
!	!	!LO:TX:t=P:problem=przy kluczu B- b-	!	!	!	!	!	!	!	!LO:TX:t=P:problem=przy kluczu B-	!	!	!	!	!
1G	Be-	1g	Be-	1b-	Be-	1dd	Be-	00r	.	00r	.	00r	.	00r	.
2c/	-a-	2g\	-a-	2cc\	-a-	2ee-X\	-a-	.	.	.	.	.	.	.	.
2B-/	-ta	2b-\	-ta	2dd\	-ta	2dd\	-ta	.	.	.	.	.	.	.	.
=2-	=2-	=2-	=2-	=2-	=2-	=2-	=2-	=2-	=2-	=2-	=2-	=2-	=2-	=2-	=2-
2e-X\	es	2g\	es	2b-\	es	2ee-y\	es	.	.	.	.	.	.	.	.
2e-\	Vir-	2g\	Vir-	2g/	Vir-	2b-/	Vir-	.	.	.	.	.	.	.	.
2c/	-go	2g\	-go	2cc\	-go	2ee-X\	-go	.	.	.	.	.	.	.	.
2c/	Ma-	2a\	Ma-	2cc\	Ma-	2ee-\	Ma-	.	.	.	.	.	.	.	.
=3-	=3-	=3-	=3-	=3-	=3-	=3-	=3-	=3-	=3-	=3-	=3-	=3-	=3-	=3-	=3-
0d	-ri-	2f#X\	-ri-	2cc\	-ri-	0dd	-ri-	00r	.	00r	.	00r	.	00r	.
.	.	1g\	.	2b-\	.	.	.	.	.	.	.	.	.	.	.
.	.	.	.	1a	.	.	.	.	.	.	.	.	.	.	.
.	.	2f#X\	.	.	.	.	.	.	.	.	.	.	.	.	.
=4-	=4-	=4-	=4-	=4-	=4-	=4-	=4-	=4-	=4-	=4-	=4-	=4-	=4-	=4-	=4-
2G/	-a	2g,<\	-a	2b-,<\	-a	2dd\	-a	.	.	.	.	.	.	.	.
1c\	De-	1g\	De-	1g\	De-	1ee-X\	De-	.	.	.	.	.	.	.	.
!LO:N:acc=#	!	!	!	!	!	!	!	!	!	!	!	!	!	!	!
2Bn/	-i	2g\	-i	2dd\	-i	2dd\	-i	.	.	.	.	.	.	.	.
=5-	=5-	=5-	=5-	=5-	=5-	=5-	=5-	=5-	=5-	=5-	=5-	=5-	=5-	=5-	=5-
2.c/	ge-	2.g\	ge-	2.cc\	ge-	2.ee-X\	ge-	1r	.	1r	.	1r	.	1r	.
4c/	-ni-	4g\	-ni-	4cc\	-ni-	4ee-\	-ni-	.	.	.	.	.	.	.	.
!	!	!	!	!LO:SIC:v:s=1bn	!	!	!	!	!	!	!	!LO:N:acc=#	!	!	!
1G	-trix	1g	-trix	1b-	-trix	1dd	-trix	1G	Be-	1g	Be-	1bn	Be-	1dd	Be-
=6-	=6-	=6-	=6-	=6-	=6-	=6-	=6-	=6-	=6-	=6-	=6-	=6-	=6-	=6-	=6-
00r	.	00r	.	00r	.	00r	.	2c/	-a-	2g\	-a-	2cc\	-a-	2ee\	-a-
.	.	.	.	.	.	.	.	2B-/	-ta	2b-\	-ta	2dd\	-ta	2ff\	-ta
.	.	.	.	.	.	.	.	2f\	es	2a\	es	2cc\	es	2ff\	es
.	.	.	.	.	.	.	.	2f\	Vir-	2a\	Vir-	2a\	Vir-	2cc\	Vir-
=7-	=7-	=7-	=7-	=7-	=7-	=7-	=7-	=7-	=7-	=7-	=7-	=7-	=7-	=7-	=7-
.	.	.	.	.	.	.	.	2d\	-go	2b-\	-go	2dd\	-go	2ff\	-go
.	.	.	.	.	.	.	.	2d\	Ma-	2b-\	Ma-	2dd\	Ma-	2ff\	Ma-
.	.	.	.	.	.	.	.	1e-X	-ri-	1g	-ri-	1b-y	-ri-	1ee-X	-ri-
=8-	=8-	=8-	=8-	=8-	=8-	=8-	=8-	=8-	=8-	=8-	=8-	=8-	=8-	=8-	=8-
0r	.	0r	.	0r	.	0r	.	2c/	a	2a\	a	2cc\	a	2ee-y\	a
.	.	.	.	.	.	.	.	1d\	De-	1f#X\	De-	1a\	De-	1dd\	De-
.	.	.	.	.	.	.	.	2e-X\	-i	2g\	-i	2g/	-i	2cc\	-i
=9-	=9-	=9-	=9-	=9-	=9-	=9-	=9-	=9-	=9-	=9-	=9-	=9-	=9-	=9-	=9-
1r	.	1r	.	1r	.	1r	.	2.d\	ge-	2g\	ge-	2.a\	ge-	2.dd\	ge-
.	.	.	.	.	.	.	.	.	.	2f#X\	-ni-	.	.	.	.
.	.	.	.	.	.	.	.	4d\	-ni-	.	.	4a\	-ni-	4dd\	-ni-
2r	.	2r	.	2r	.	2r	.	1g	-trix	1g	-trix	1b-	-trix	1dd	-trix
2G/	be-	2g\	be-	2b-\	be-	2dd\	be-	.	.	.	.	.	.	.	.
=10-	=10-	=10-	=10-	=10-	=10-	=10-	=10-	=10-	=10-	=10-	=10-	=10-	=10-	=10-	=10-
2c/	-a-	2e/	-a-	2g/	-a-	2cc\	-a-	0r	.	0r	.	0r	.	0r	.
2c/	-ta	2e/	-ta	2g/	-ta	2cc\	-ta	.	.	.	.	.	.	.	.
2A/	es	2a\	es	2a\	es	2cc\	es	.	.	.	.	.	.	.	.
*custos:c	*	*custos:g	*	*custos:cc	*	*	*	*	*	*	*	*	*	*	*
2B-y/	be-	2g\	be-	2dd\	be-	2dd\	be-	.	.	.	.	.	.	.	.
!LO:LB:g=original	!	!LO:LB:g=original	!	!LO:LB:g=original	!	!	!	!	!	!	!	!	!	!	!
=11-	=11-	=11-	=11-	=11-	=11-	=11-	=11-	=11-	=11-	=11-	=11-	=11-	=11-	=11-	=11-
*	*	*	*	*	*	*custos:dd	*	*	*	*	*	*	*	*	*
2c/	-a-	2g\	-a-	2cc\	-a-	2ee-X\	-a-	2r	.	2r	.	2r	.	2r	.
!	!	!	!	!	!	!LO:LB:g=original	!	!	!	!	!	!	!	!	!
2d\	-ta	2f#X\	-ta	2a\	-ta	2dd\	-ta	2d\	be-	2a\	be-	2dd\	be-	2dd\	be-
1G	es	1g	es	1b-	es	1dd	es	2g\	-a-	2g\	-a-	2b-\	-a-	2dd\	-a-
*	*	*	*	*	*	*	*	*	*	*	*	*	*	*custos:ff	*
.	.	.	.	.	.	.	.	2g\	-ta	2g\	-ta	2b-\	-ta	2dd\	-ta
!	!	!	!	!	!	!	!	!	!	!	!	!	!	!LO:LB:g=original	!
=12-	=12-	=12-	=12-	=12-	=12-	=12-	=12-	=12-	=12-	=12-	=12-	=12-	=12-	=12-	=12-
*	*	*	*	*	*	*	*	*	*	*custos:a	*	*	*	*	*
0r	.	0r	.	0r	.	0r	.	2d\	es	2a\	es	2dd\	es	2ff\	es
*	*	*	*	*	*	*	*	*custos:g	*	*	*	*	*	*	*
!	!	!	!	!	!	!	!	!	!	!LO:LB:g=original	!	!	!	!	!
.	.	.	.	.	.	.	.	2d\	be-	2a\	be-	2dd\	be-	2ff\	be-
!	!	!	!	!	!	!	!	!LO:LB:g=original	!	!	!	!	!	!	!
.	.	.	.	.	.	.	.	2g\	-a-	2b-\	-a-	2dd\	-a-	2eeny\	-a-
*	*	*	*	*	*	*	*	*	*	*	*	*custos:dd	*	*	*
.	.	.	.	.	.	.	.	2a\	-ta	2a\	-ta	2cc#X\	-ta	2ee\	-ta
!	!	!	!	!	!	!	!	!	!	!	!	!LO:LB:g=original	!	!	!
=13-	=13-	=13-	=13-	=13-	=13-	=13-	=13-	=13-	=13-	=13-	=13-	=13-	=13-	=13-	=13-
2r	.	2r	.	2r	.	2r	.	1d	es	1fny	es	1dd	es	1dd	es
2d\	Vir-	2fny\	Vir-	2a\	Vir-	2dd\	Vir-	.	.	.	.	.	.	.	.
2B-/	-go	2f\	-go	2b-\	-go	2dd\	-go	2r	.	2r	.	2r	.	2r	.
2B-/	Ma-	2f\	Ma-	2b-\	Ma-	2dd\	Ma-	2B-/	Vir-	2f\	Vir-	2b-\	Vir-	2ff\	Vir-
=14-	=14-	=14-	=14-	=14-	=14-	=14-	=14-	=14-	=14-	=14-	=14-	=14-	=14-	=14-	=14-
1B-	-ri-	1f	-ri-	1b-	-ri-	1dd	-ri-	2B-/	-go	2f\	-go	2b-\	-go	2ff\	-go
.	.	.	.	.	.	.	.	2B-/	Ma-	2f\	Ma-	2b-\	Ma-	2ff\	Ma-
2F/	-a	2a\	-a	2a\	-a	2cc\	-a	1f	-ri-	1a	-ri-	1ccny	-ri-	1ff	-ri-
2F/	Vir-	2f\	Vir-	2a\	Vir-	2cc\	Vir-	.	.	.	.	.	.	.	.
=15-	=15-	=15-	=15-	=15-	=15-	=15-	=15-	=15-	=15-	=15-	=15-	=15-	=15-	=15-	=15-
!	!	!	!	!	!	!	!	!	!	!	!	!	!	!LO:TX:t=P:global:problem=oddech jako rozdzielacz słów	!
2c/	-go	2g\	-go	2g/	-go	2cc\	-go	2c/	-a	2g,<\	-a	2cc,<\	-a	2ee-X,<\	-a
2c/	Ma-	2g\	Ma-	2g/	Ma-	2cc\	Ma-	2c/	Vir-	2g\	Vir-	2g/	Vir-	2ee-\	Vir-
1c	-ri-	1g	-ri-	1g	-ri-	1cc	-ri-	2c/	-go	2g\	-go	2cc\	-go	2ee-\	-go
.	.	.	.	.	.	.	.	2c/	Ma-	2g\	Ma-	2cc\	Ma-	2ee-\	Ma-
=16-	=16-	=16-	=16-	=16-	=16-	=16-	=16-	=16-	=16-	=16-	=16-	=16-	=16-	=16-	=16-
2G/	-a	2g\	-a	2g/	-a	2dd\	-a	2g\	-ri-	2.g\	-ri-	2cc\	-ri-	2dd\	-ri-
1d\	De-	1f#X\	De-	1a\	De-	1dd\	De-	2d\	-a	.	.	2a\	-a	2dd\	-a
.	.	.	.	.	.	.	.	.	.	4d/	-a	.	.	.	.
.	.	.	.	.	.	.	.	2d\	De-	2.d/	De-	1ryy	.	2dd\	De-
2G/	-i	2g\	-i	2g/	.	2b-/	-i	2g\	-i	.	.	.	.	2dd\	-i
.	.	.	.	.	.	.	.	.	.	4e/	-i	.	.	.	.
=17-	=17-	=17-	=17-	=17-	=17-	=17-	=17-	=17-	=17-	=17-	=17-	=17-	=17-	=17-	=17-
1.d	ge-	2f#X\	ge-	2a\	.	1.dd	ge-	1.d	ge-	4f#X\	ge-	2a\	De-	1.dd	ge-
.	.	.	.	.	.	.	.	.	.	4d/	.	.	.	.	.
.	.	2d/	-ni-	2g/	-i	.	.	.	.	1g\	.	2b-\	-i	.	.
.	.	0d	-trix	2.a\	ge-	.	.	.	.	.	.	2.a\	ge-	.	.
2d\	-ni-	.	.	.	.	2dd\	-ni-	2d\	-ni-	2f#\	-ni-	.	.	2dd\	-ni-
.	.	.	.	4a\	-ni-	.	.	.	.	.	.	4a\	-ni-	.	.
=18-	=18-	=18-	=18-	=18-	=18-	=18-	=18-	=18-	=18-	=18-	=18-	=18-	=18-	=18-	=18-
!	!	!	!	!	!	!LO:N:acc=#	!	!	!	!	!	!LO:N:acc=#	!	!	!
1G	-trix	.	.	1g	-trix	1bn	-trix	1g	-trix	1g	-trix	1bn	-trix	1dd	-trix
2G/	quae	2g\	quae	2b-\	quae	2dd\	quae	00r	.	00r	.	00r	.	00r	.
4A/	cre-	4e/	cre-	4a\	cre-	4cc\	cre-	.	.	.	.	.	.	.	.
4A/	-di-	4e/	-di-	4a\	-di-	4cc\	-di-	.	.	.	.	.	.	.	.
=19-	=19-	=19-	=19-	=19-	=19-	=19-	=19-	=19-	=19-	=19-	=19-	=19-	=19-	=19-	=19-
2A/	-di-	2e/	-di-	2a\	-di-	2cc\	-di-	.	.	.	.	.	.	.	.
*custos:B-	*	*	*	*custos:b-	*	*	*	*	*	*	*	*	*	*	*
2F/	-sti	2fny,<\	-ſti	2a\	-ſti	2cc\	-sti	.	.	.	.	.	.	.	.
!LO:LB:g=original	!	!	!	!LO:LB:g=original	!	!	!	!	!	!	!	!	!	!	!
2.B-/	Do-	4d/	Do-	1.b-	Do-	2.dd\	Do-	.	.	.	.	.	.	.	.
.	.	4c/	.	.	.	.	.	.	.	.	.	.	.	.	.
.	.	4d/	.	.	.	.	.	.	.	.	.	.	.	.	.
*	*	*custos:f	*	*	*	*	*	*	*	*	*	*	*	*	*
8A/L	.	4e/	.	.	.	8cc\L	.	.	.	.	.	.	.	.	.
*	*	*	*	*	*	*custos:cc	*	*	*	*	*	*	*	*	*
8G/J	.	.	.	.	.	8b-y\J	.	.	.	.	.	.	.	.	.
!	!	!LO:LB:g=original	!	!	!	!LO:LB:g=original	!	!	!	!	!	!	!	!	!
=20-	=20-	=20-	=20-	=20-	=20-	=20-	=20-	=20-	=20-	=20-	=20-	=20-	=20-	=20-	=20-
2.F/	.	2.f\	.	.	.	2.cc\	.	.	.	.	.	.	.	.	.
.	.	.	.	2a\	-mi-	.	.	.	.	.	.	.	.	.	.
4F/	-mi-	4f\	-mi-	.	.	4cc\	-mi-	.	.	.	.	.	.	.	.
1B-	-no	1f	-no	1b-	-no	1dd	-no	2r	.	2r	.	2r	.	2r	.
.	.	.	.	.	.	.	.	2B-/	quae	2fny\	quae	2b-y\	quae	2dd\	quae
=21-	=21-	=21-	=21-	=21-	=21-	=21-	=21-	=21-	=21-	=21-	=21-	=21-	=21-	=21-	=21-
00r	.	00r	.	00r	.	00r	.	2.f\	cre-	2f\	cre-	2.a\	cre-	2ff\	cre-
*	*	*	*	*	*	*	*	*	*	*custos:f	*	*	*	*	*
.	.	.	.	.	.	.	.	.	.	2f\	-di-	.	.	2ff\	-di-
.	.	.	.	.	.	.	.	4f\	-di-	.	.	4a\	-di-	.	.
!	!	!	!	!	!	!	!	!	!	!LO:LB:g=original	!	!	!	!	!
.	.	.	.	.	.	.	.	2f\	-di-	2f\	-di-	2a\	-di-	2cc\	-di-
*	*	*	*	*	*	*	*	*	*	*	*	*	*	*custos:ee	*
.	.	.	.	.	.	.	.	2d\	-ſti	2f\	-sti	2b-,<\	-ſti	2dd\	-ſti
!	!	!	!	!	!	!	!	!	!	!	!	!	!	!LO:LB:g=original	!
=22-	=22-	=22-	=22-	=22-	=22-	=22-	=22-	=22-	=22-	=22-	=22-	=22-	=22-	=22-	=22-
.	.	.	.	.	.	.	.	2.g\	Do-	1.g	Do-	4b-\	Do-	4ee-X\	Do-
.	.	.	.	.	.	.	.	.	.	.	.	4cc\	.	4dd\	.
.	.	.	.	.	.	.	.	.	.	.	.	4b-\	.	1dd\	.
*	*	*	*	*	*	*	*	*custos:e	*	*	*	*	*	*	*
.	.	.	.	.	.	.	.	4f\	.	.	.	4a\	.	.	.
!	!	!	!	!	!	!	!	!LO:LB:g=original	!	!	!	!	!	!	!
.	.	.	.	.	.	.	.	2e-X\	.	.	.	2.g/	.	.	.
.	.	.	.	.	.	.	.	2e-\	-mi-	2g\	-mi-	.	.	2cc\	-mi-
*	*	*	*	*	*	*	*	*	*	*	*	*custos:a	*	*	*
.	.	.	.	.	.	.	.	.	.	.	.	4g/	-mi-	.	.
!	!	!	!	!	!	!	!	!	!	!	!	!LO:LB:g=original	!	!	!
=23-	=23-	=23-	=23-	=23-	=23-	=23-	=23-	=23-	=23-	=23-	=23-	=23-	=23-	=23-	=23-
1r	.	1r	.	1r	.	1r	.	2d\	-no	2f#X,<\	-no	2a\	-no	2dd\	-no
.	.	.	.	.	.	.	.	2d\	quae	2f#\	quae	2a\	quae	2dd\	quae
!	!	!	!	!	!	!	!	!	!	!	!	!LO:N:acc=#	!	!	!
2r	.	2r	.	2r	.	2r	.	4g\	cre-	4g\	cre-	4bn\	cre-	4dd\	cre-
.	.	.	.	.	.	.	.	4g\	-di-	4g\	-di-	4b\	-di-	4dd\	-di-
!	!	!	!	!LO:N:acc=#	!	!	!	!	!	!	!	!	!	!	!
2G/	quae	2g\	quae	2bn\	quae	2dd\	quae	2g\	-di-	2g\	-di-	2b\	-di-	2dd\	-di-
=24-	=24-	=24-	=24-	=24-	=24-	=24-	=24-	=24-	=24-	=24-	=24-	=24-	=24-	=24-	=24-
4c/	cre-	4e/	cre-	4g/	cre-	4eeny\	cre-	2c/	-ſti	2g\	-ſti	2cc\	-ſti	2cc\	-sti
4c/	-di-	4e/	-di-	4g/	-di-	4ee\	-di-	.	.	.	.	.	.	.	.
1c\	-di-	1g\	-di-	1cc\	-di-	1ee\	-di-	2r	.	2r	.	2r	.	2r	.
.	.	.	.	.	.	.	.	2c/	quae	2g\	quae	2cc\	quae	2eeny\	quae
2F/	-ſti	2f\	-ſti	2a\	-ſti	2cc\	-sti	4f\	cre-	4a\	cre-	4cc\	cre-	4ff\	cre-
.	.	.	.	.	.	.	.	4f\	-di-	4a\	-di-	4cc\	-di-	4ff\	-di-
=25-	=25-	=25-	=25-	=25-	=25-	=25-	=25-	=25-	=25-	=25-	=25-	=25-	=25-	=25-	=25-
2.B-/	Do-	2f\	Do-	2.b-\	Do-	4dd\	Do-	2B-/	-di-	2fny\	-di-	2b-y\	-di-	2ff\	-di-
.	.	.	.	.	.	4cc\	.	.	.	.	.	.	.	.	.
.	.	2g\	.	.	.	2b-/	.	2d\	-ſti	4b-\	-sti	2b-\	-ſti	2dd\	-ſti
4c/	.	.	.	8a\L	.	.	.	.	.	4r	.	.	.	.	.
.	.	.	.	8g\J	.	.	.	.	.	.	.	.	.	.	.
1.d	.	1.d	.	4f#X/	.	2a/	.	1.d	Do-	2a\	Do-	2r	.	1.dd	Do-
.	.	.	.	4d/	.	.	.	.	.	.	.	.	.	.	.
.	.	.	.	1g\	.	2b-/	.	.	.	2g\	.	2.dd\	Do-	.	.
=26-	=26-	=26-	=26-	=26-	=26-	=26-	=26-	=26-	=26-	=26-	=26-	=26-	=26-	=26-	=26-
.	.	.	.	.	.	2.a/	.	.	.	2.a\	.	.	.	.	.
.	.	.	.	.	.	.	.	.	.	.	.	8cc\L	.	.	.
.	.	.	.	.	.	.	.	.	.	.	.	8b-\J	.	.	.
2d\	-mi-	2d/	-mi-	2f#X/	-mi-	.	.	2d\	-mi-	.	.	4.dd\	.	2dd\	-mi-
.	.	.	.	.	.	4a/	-mi-	.	.	4a\	-mi-	.	.	.	.
.	.	.	.	.	.	.	.	.	.	.	.	8dd\	-mi-	.	.
1G	-no	1d,<	-no	1g	-no	1b-,<	-no	1g	-no	1g	-no	1b-	-no	1dd	-no
=27-	=27-	=27-	=27-	=27-	=27-	=27-	=27-	=27-	=27-	=27-	=27-	=27-	=27-	=27-	=27-
2.G/	per-	2.g\	per-	2.dd\	per-	2.b-/	per-	00r	.	00r	.	00r	.	00r	.
4A/	-fe-	4g\	-fe-	4cc\	-fe-	4cc\	-fe-	.	.	.	.	.	.	.	.
!	!	!	!	!LO:TX:t=P:problem=niewyraźne źródło	!	!	!	!	!	!	!	!	!	!	!
2B-X/	-cta	2f\	-cta	2b-\	-cta	2dd\	-cta	.	.	.	.	.	.	.	.
2E-X/	ſunt	2g\	ſunt	2cc\	ſunt	2ee-X\	ſunt	.	.	.	.	.	.	.	.
=28-	=28-	=28-	=28-	=28-	=28-	=28-	=28-	=28-	=28-	=28-	=28-	=28-	=28-	=28-	=28-
2F/	in	2f\	in	2a\	in	2cc\	in	.	.	.	.	.	.	.	.
4F/	te	4f\	te	4a\	te	4cc\	te	.	.	.	.	.	.	.	.
4F/	quae	4f\	quae	4a\	quae	4cc\	quae	.	.	.	.	.	.	.	.
*custos:G	*	*	*	*	*	*	*	*	*	*	*	*	*	*	*
2B-/	di-	2f\	di-	2b-\	di-	2dd\	di-	.	.	.	.	.	.	.	.
!LO:LB:g=original	!	!	!	!	!	!	!	!	!	!	!	!	!	!	!
4G/	-cta	4g,<\	-cta	4b-\	-cta	4dd\	-cta	.	.	.	.	.	.	.	.
*	*	*	*	*custos:a	*	*	*	*	*	*	*	*	*	*	*
4G/	ſunt	4g\	ſunt	4b-\	ſunt	4dd\	ſu(n)t	.	.	.	.	.	.	.	.
!	!	!	!	!LO:LB:g=original	!	!	!	!	!	!	!	!	!	!	!
=29-	=29-	=29-	=29-	=29-	=29-	=29-	=29-	=29-	=29-	=29-	=29-	=29-	=29-	=29-	=29-
*	*	*	*	*	*	*custos:dd	*	*	*	*	*	*	*	*	*
1A	ti-	(4a\	ti-	1a	ti-	4cc#X\	ti-	1r	.	1r	.	1r	.	0r	.
!	!	!	!	!	!	!LO:LB:g=original	!	!	!	!	!	!	!	!	!
.	.	4f\)	.	.	.	2dd\	.	.	.	.	.	.	.	.	.
.	.	2e/	.	.	.	.	.	.	.	.	.	.	.	.	.
.	.	.	.	.	.	4cc#X\	.	.	.	.	.	.	.	.	.
*	*	*custos:g	*	*	*	*	*	*	*	*	*	*	*	*	*
!	!	!LO:TX:b:t=P:problem=# below	!	!	!	!	!	!	!	!	!	!	!	!	!
1d	-bi	1f#X	-bi	1a	-bi	1dd	-bi	2.d\	per-	2.f#X\	per-	2.dd\	per-	.	.
*	*	*	*	*	*	*	*	*	*	*custos:a	*	*	*	*	*
.	.	.	.	.	.	.	.	4eny\	-fe-	4g\	-fe-	4cc\	-fe-	.	.
!	!	!LO:LB:g=original	!	!	!	!	!	!	!	!LO:LB:g=original	!	!	!	!	!
=30-	=30-	=30-	=30-	=30-	=30-	=30-	=30-	=30-	=30-	=30-	=30-	=30-	=30-	=30-	=30-
00r	.	00r	.	00r	.	00r	.	2f#X\	-cta	2a\	-cta	2a\	-cta	2.dd\	per-
.	.	.	.	.	.	.	.	2g\	ſunt	2g\	ſunt	2b-\	ſunt	.	.
.	.	.	.	.	.	.	.	.	.	.	.	.	.	4ee\	-fe-
.	.	.	.	.	.	.	.	2d\	in	2a\	in	2a\	in	2ff#X\	-cta
*	*	*	*	*	*	*	*	*	*	*	*	*	*	*custos:ff	*
.	.	.	.	.	.	.	.	2G/	te	2g,<\	te	2b-,<\	te	2gg\	ſunt
!	!	!	!	!	!	!	!	!	!	!	!	!	!	!LO:LB:g=original	!
=31-	=31-	=31-	=31-	=31-	=31-	=31-	=31-	=31-	=31-	=31-	=31-	=31-	=31-	=31-	=31-
.	.	.	.	.	.	.	.	2.d\	per-	2.a\	per-	2.dd\	per-	2ff#X\	in
.	.	.	.	.	.	.	.	.	.	.	.	.	.	2gg\	te
*	*	*	*	*	*	*	*	*custos:f	*	*	*	*	*	*	*
.	.	.	.	.	.	.	.	4e\	-fe-	4g\	-fe-	4cc\	-fe-	.	.
*	*	*	*	*	*	*	*	*	*	*	*	*	*	*	*ij
*	*	*	*	*	*	*	*	*	*	*	*	*custos:b-	*	*	*
!	!	!	!	!	!	!	!	!LO:LB:g=original	!	!	!	!	!	!	!
.	.	.	.	.	.	.	.	2f#X\	-cta	2a\	-cta	2a\	-cta	2.dd\	per-
!	!	!	!	!	!	!	!	!	!	!	!	!LO:LB:g=original	!	!	!
.	.	.	.	.	.	.	.	2g\	ſunt	2g\	ſunt	2b-\	ſunt	.	.
.	.	.	.	.	.	.	.	.	.	.	.	.	.	4ee\	-fe-
=32-	=32-	=32-	=32-	=32-	=32-	=32-	=32-	=32-	=32-	=32-	=32-	=32-	=32-	=32-	=32-
00r	.	00r	.	00r	.	00r	.	2d\	in	2a\	in	2a\	in	2ff#X\	-cta
.	.	.	.	.	.	.	.	2G/	te	2g\	te	2b-,<\	te	2gg\	ſunt
*	*	*	*	*	*	*	*	*	*	*	*	*	*ij	*	*
.	.	.	.	.	.	.	.	2.d\	per-	2.a\	per-	2.dd\	per-	2ff#\	in
.	.	.	.	.	.	.	.	.	.	.	.	.	.	2gg\	te
*	*	*	*	*	*	*	*	*	*	*	*	*	*	*	*Xij
.	.	.	.	.	.	.	.	4e\	-fe-	4g\	-fe-	4cc\	.	.	.
=33-	=33-	=33-	=33-	=33-	=33-	=33-	=33-	=33-	=33-	=33-	=33-	=33-	=33-	=33-	=33-
!	!	!	!	!	!	!	!	!	!	!	!	!	!	!LO:TX:t=P:problem=nieczytelne źródło	!
.	.	.	.	.	.	.	.	1f#X	-cta	1a	-cta	1a	-fe-	1ryy	.
.	.	.	.	.	.	.	.	1g	ſunt	1g	ſunt	1b-,<	-cta	2.dd\	per-
.	.	.	.	.	.	.	.	.	.	.	.	.	.	4ee\	-fe-
=34-	=34-	=34-	=34-	=34-	=34-	=34-	=34-	=34-	=34-	=34-	=34-	=34-	=34-	=34-	=34-
00r	.	00r	.	00r	.	00r	.	0d	in	2a\	in	2a\	ſunt	2ff#X\	-cta
*	*	*	*	*	*	*	*	*	*	*	*	*	*Xij	*	*
.	.	.	.	.	.	.	.	.	.	2g\	.	2b-\	in	2gg\	sunt
.	.	.	.	.	.	.	.	.	.	1a	.	1a	.	(2gg\	in
.	.	.	.	.	.	.	.	.	.	.	.	.	.	2ff#X\)	.
=35-	=35-	=35-	=35-	=35-	=35-	=35-	=35-	=35-	=35-	=35-	=35-	=35-	=35-	=35-	=35-
!	!	!	!	!	!	!	!	!	!	!	!	!LO:N:acc=#	!	!	!
.	.	.	.	.	.	.	.	2G,</	te	2g,<\	te	2bn,<\	te	2gg\	te
.	.	.	.	.	.	.	.	2G/	quae	2g\	quae	2b\	quae	2dd\	quae
.	.	.	.	.	.	.	.	2c/	di-	2g\	di-	2cc\	di-	2ee-X\	di-
.	.	.	.	.	.	.	.	4c/	-cta	4g\	-cta	4cc\	-cta	4ee-\	-cta
!	!	!	!	!	!	!	!	!LO:N:acc=#	!	!	!	!	!	!	!
.	.	.	.	.	.	.	.	4Bn/	ſunt	4g\	ſunt	4dd\	ſunt	4dd\	ſunt
=36-	=36-	=36-	=36-	=36-	=36-	=36-	=36-	=36-	=36-	=36-	=36-	=36-	=36-	=36-	=36-
1r	.	1r	.	1r	.	0r	.	1c	ti-	1g	ti-	1ee-X	ti-	1cc	ti-
*	*	*	*	*	*	*	*	*	*	*custos:g	*	*	*	*	*
!	!	!	!	!LO:N:acc=#	!	!	!	!	!	!	!	!	!	!LO:N:acc=#	!
2.G/	per-	2.g\	per-	2.bn\	per-	.	.	1G	-bi	1g	-bi	1dd	-bi	1bn	-bi
4A/	-fe-	4g\	-fe-	4cc\	-fe-	.	.	.	.	.	.	.	.	.	.
!	!	!	!	!	!	!	!	!	!	!LO:LB:g=original	!	!	!	!	!
=37-	=37-	=37-	=37-	=37-	=37-	=37-	=37-	=37-	=37-	=37-	=37-	=37-	=37-	=37-	=37-
!LO:N:acc=#	!	!	!	!	!	!	!	!	!	!	!	!	!	!	!
2Bn/	-cta	2g\	-cta	2dd\	-cta	2.g/	per-	00r	.	00r	.	00r	.	00r	.
2c/	ſunt	2g\	ſunt	2cc\	ſunt	.	.	.	.	.	.	.	.	.	.
.	.	.	.	.	.	4a/	-fe-	.	.	.	.	.	.	.	.
!	!	!	!	!LO:N:acc=#	!	!LO:N:acc=#	!	!	!	!	!	!	!	!	!
2G/	in	2g\	in	2bn\	in	2bn/	-cta	.	.	.	.	.	.	.	.
2c/	te	2e-X,</	te	2g/	te	2ccny\	ſunt	.	.	.	.	.	.	.	.
=38-	=38-	=38-	=38-	=38-	=38-	=38-	=38-	=38-	=38-	=38-	=38-	=38-	=38-	=38-	=38-
!	!	!	!	!LO:N:acc=#	!	!	!	!	!	!	!	!	!	!	!
2.G/	per-	2.g\	per-	2.bn\	per-	2dd\	in	.	.	.	.	.	.	.	.
.	.	.	.	.	.	2cc\	te	.	.	.	.	.	.	.	.
4A/	-fe-	4g\	-fe-	4cc\	-fe-	.	.	.	.	.	.	.	.	.	.
!LO:N:acc=#	!	!	!	!	!	!	!	!	!	!	!	!	!	!	!
2Bn/	-cta	2g\	-cta	2dd\	-cta	2.g/	per-	.	.	.	.	.	.	.	.
2c/	ſunt	2e-X/	ſunt	2cc\	ſunt	.	.	.	.	.	.	.	.	.	.
.	.	.	.	.	.	4a/	-fe-	.	.	.	.	.	.	.	.
=39-	=39-	=39-	=39-	=39-	=39-	=39-	=39-	=39-	=39-	=39-	=39-	=39-	=39-	=39-	=39-
!	!	!	!	!	!	!LO:N:acc=#	!	!	!	!	!	!	!	!	!
0G	in	0g	in	2dd\	in	2bn/	-cta	0r	.	0r	.	0r	.	0r	.
.	.	.	.	2ee-X\	.	2cc\	ſunt	.	.	.	.	.	.	.	.
.	.	.	.	1dd,<	.	(2cc\	in	.	.	.	.	.	.	.	.
!	!	!	!	!	!	!LO:N:acc=#	!	!	!	!	!	!	!	!	!
.	.	.	.	.	.	2b\)	.	.	.	.	.	.	.	.	.
=40-	=40-	=40-	=40-	=40-	=40-	=40-	=40-	=40-	=40-	=40-	=40-	=40-	=40-	=40-	=40-
2c/	te	2e-X/	te	2cc\	te	2cc\	te	2r	.	2r	.	2r	.	2r	.
*	*	*	*	*	*	*	*	*	*	*	*	*	*	*custos:dd	*
2c/	quae	2e-/	quae	2g/	quae	2cc\	quae	2c/	quae	2g\	quae	2cc\	quae	2ee-X\	quae
!	!	!	!	!	!	!	!	!	!	!	!	!	!	!LO:LB:g=original	!
2G/	di-	2g\	di-	2b-y\	di-	2dd\	di-	2g\	di-	2g\	di-	2b-y\	di-	2dd\	di-
4G/	-cta	4g\	-cta	4b-\	-cta	4dd\	-cta	4g\	-cta	4g\	-cta	4b-\	-cta	4dd\	-cta
4G/	ſunt	4g\	ſunt	4b-\	ſunt	4dd\	ſunt	4g\	ſunt	4g\	ſunt	4b-\	ſunt	4dd\	ſunt
=41-	=41-	=41-	=41-	=41-	=41-	=41-	=41-	=41-	=41-	=41-	=41-	=41-	=41-	=41-	=41-
0d	ti-	1ryy	.	2a\	ti-	0dd	ti-	0d	ti-	2a\	ti-	0dd	ti-	0dd	ti-
.	.	.	.	2b-\	.	.	.	.	.	2g\	.	.	.	.	.
.	.	4f#X\	ti-	1a	.	.	.	.	.	1a	.	.	.	.	.
.	.	2g\	.	.	.	.	.	.	.	.	.	.	.	.	.
.	.	4f#X\	.	.	.	.	.	.	.	.	.	.	.	.	.
=42-	=42-	=42-	=42-	=42-	=42-	=42-	=42-	=42-	=42-	=42-	=42-	=42-	=42-	=42-	=42-
*	*	*	*	*custos:a	*	*	*	*	*	*	*	*	*	*	*
*custos:d	*	*	*	*	*	*	*	*	*	*	*	*	*	*	*
!	!	!	!	!LO:N:acc=#	!	!	!	!	!	!	!	!LO:N:acc=#	!	!	!
1G	-bi	1g	-bi	1bn	-bi	1dd	-bi	1g	-bi	1g	-bi,	1bn	-bi	1dd	-bi
!LO:LB:g=original	!	!	!	!LO:LB:g=original	!	!	!	!	!	!	!	!	!	!	!
0r	.	0r	.	0r	.	0r	.	2r	.	2r	.	2r	.	2r	.
.	.	.	.	.	.	.	.	4g\	ec-	4g\	ec-	4b-X\	ec-	4dd\	ec-
*	*	*	*	*	*	*	*	*custos:g	*	*	*	*	*	*	*
.	.	.	.	.	.	.	.	4g\	-ce	4g\	-ce	4b-\	-ce	4dd\	-ce
!	!	!	!	!	!	!	!	!LO:LB:g=original	!	!	!	!	!	!	!
=43-	=43-	=43-	=43-	=43-	=43-	=43-	=43-	=43-	=43-	=43-	=43-	=43-	=43-	=43-	=43-
*	*	*	*	*	*	*	*	*	*	*	*	*custos:dd	*	*	*
.	.	.	.	.	.	.	.	2g\	e-	2g\	e-	2b-\	e-	2dd\	e-
!	!	!	!	!	!	!	!	!	!	!	!	!LO:LB:g=original	!	!	!
.	.	.	.	.	.	.	.	2d\	-xal-	2a\	-xal-	2dd\	-xal-	2ffny\	-xal-
1r	.	1r	.	1r	.	1r	.	2g\	-ta-	2b-\	-ta-	2dd\	-ta-	2eeny\	-ta-
.	.	.	.	.	.	.	.	2a\	-ta	2a\	-ta	2cc#X\	-ta	2ee\	-ta
=44-	=44-	=44-	=44-	=44-	=44-	=44-	=44-	=44-	=44-	=44-	=44-	=44-	=44-	=44-	=44-
2r	.	2r	.	2r	.	2r	.	1d	es	1fny	es	1dd	es	1dd	es
4d\	ec-	4fny\	ec-	4a\	ec-	4dd\	ec-	.	.	.	.	.	.	.	.
*	*	*custos:a	*	*	*	*custos:ff	*	*	*	*	*	*	*	*	*
4d\	-ce	4f\	-ce	4a\	-ce	4dd\	-ce	.	.	.	.	.	.	.	.
!	!	!LO:LB:g=original	!	!	!	!LO:LB:g=original	!	!	!	!	!	!	!	!	!
2d\	e-	2a\	e-	2dd\	e-	2ff\	e-	0r	.	0r	.	0r	.	1r	.
2A/	-xal-	2a\	-xal-	2cc\	-xal-	2eeny\	-xal-	.	.	.	.	.	.	.	.
=45-	=45-	=45-	=45-	=45-	=45-	=45-	=45-	=45-	=45-	=45-	=45-	=45-	=45-	=45-	=45-
2B-y/	-ta-	2g\	-ta-	2b-y\	-ta-	2dd\	-ta-	.	.	.	.	.	.	0r	.
2c/	-ta	2eny/	-ta	2g/	-ta	2cc\	-ta	.	.	.	.	.	.	.	.
1F	es	1f	es	2a\	es	2cc\	es	1r	.	1r	.	1r	.	.	.
.	.	.	.	4fny/	su-	4a/	su-	.	.	.	.	.	.	.	.
.	.	.	.	4g\	-p(er)	4b-y/	-per	.	.	.	.	.	.	.	.
=46-	=46-	=46-	=46-	=46-	=46-	=46-	=46-	=46-	=46-	=46-	=46-	=46-	=46-	=46-	=46-
2F/	su-	2f\	su-	2a\	cho-	2cc\	cho-	2r	.	2r	.	2r	.	2r	.
2F/	-per	2f\	-per	2f,</	-ros	2a/	-rus	4fny\	ſu-	4a\	ſu-	4a\	su-	4cc\	su-
.	.	.	.	.	.	.	.	4f\	-per	4g\	-p(er)	4b-\	-per	4cc\	-per
*	*	*	*	*	*ij	*	*	*	*	*	*	*	*	*	*
1F	cho-	1f	cho-	4f/	su-	4a/	su-	2f\	cho-	2f\	cho-	2ccny\	cho-	2ff\	cho-
.	.	.	.	4g/	-p(er)	4b-/	-per	.	.	.	.	.	.	.	.
.	.	.	.	4a\	cho-	4cc\	cho-	2f\	-ros	2f\	-ros	2a\	-ros	2cc\	-ros
.	.	.	.	4a,<\	-ros	4a/	-rus	.	.	.	.	.	.	.	.
*	*	*	*	*	*Xij	*	*	*	*	*	*	*	*	*	*
=47-	=47-	=47-	=47-	=47-	=47-	=47-	=47-	=47-	=47-	=47-	=47-	=47-	=47-	=47-	=47-
2B-,</	-ros	2f\	-rus	4b-\	su-	4dd\	su-	4B-y/	su-	4f\	su-	4f/	su-	4dd\	su-
.	.	.	.	4cc\	-pe[r]	4ee\	-per	4B-/	-per	4f\	-p(er)	4f/	-per	4cc\	-per
*	*	*	*	*	*	*	*	*	*	*custos:f	*	*	*	*	*
4B-/	su-	4f\	su-	2dd\	cho-	2ff\	cho-	2B-/	cho-	2f\	cho-	2b-\	cho-	2b-y/	cho-
4B-/	-per	4f\	-per	.	.	.	.	.	.	.	.	.	.	.	.
!	!	!	!	!	!	!	!	!	!	!LO:LB:g=original	!	!	!	!	!
1B-	cho-	1b-	cho-	2b-\	-rus	2dd\	-ros	2B-/	-ros	2f\	-ros	2dd\	-ros	2ff\	-ros
*	*	*	*	*	*ij	*	*	*	*	*	*	*	*	*	*
.	.	.	.	4b-\	su-	4dd\	su-	4B-/	ſu-	4b-\	su-	4ff\	su-	4dd\	su-
.	.	.	.	4cc\	-pe[r]	4ee\	-p(er)	4B-/	-per	4b-\	-p(er)	4eeny\	-per	4cc\	-per
=48-	=48-	=48-	=48-	=48-	=48-	=48-	=48-	=48-	=48-	=48-	=48-	=48-	=48-	=48-	=48-
1B-	-ros	1f	-ros	2dd\	cho-	2ff\	cho-	2B-/	cho-	2b-\	cho-	2dd\	cho-	2b-/	cho-
.	.	.	.	2b-\	-rus	2dd\	-ros	2B-/	-ros	2f\	-ros	2dd\	-ros	2ff\	-ros
*	*	*	*	*	*Xij	*	*	*	*	*	*	*	*	*	*
1.G	An-	1.g	An-	1.b-	An-	1.b-	An-	1.d	An-	1.g	An-	1.dd	An-	1.dd	An-
=49-	=49-	=49-	=49-	=49-	=49-	=49-	=49-	=49-	=49-	=49-	=49-	=49-	=49-	=49-	=49-
*	*	*	*	*	*	*	*	*	*	*	*	*	*	*custos:gg	*
2G/	-ge-	2g\	-ge-	2b-\	-ge-	2b-/	-ge-	2g\	-ge-	2g\	-ge-	2dd\	-ge-	2gg\	-ge-
!	!	!	!	!	!	!	!	!	!	!	!	!	!	!LO:LB:g=original	!
1d	-lo-	1a	-lo-	1a	-lo-	1dd	-lo-	1d	-lo-	1a	-lo-	1dd	-lo-	(2gg\	-lo-
.	.	.	.	.	.	.	.	.	.	.	.	.	.	2ff#X\)	.
=50-	=50-	=50-	=50-	=50-	=50-	=50-	=50-	=50-	=50-	=50-	=50-	=50-	=50-	=50-	=50-
*	*	*	*	*custos:b-	*	*	*	*	*	*	*	*	*	*	*
1G	-rum	1g	-rum	1b-	-rum	1dd	-rum	2g\	-rum	2g\	-ru(m)	2b-,<\	-rum	2gg\	-rum
.	.	.	.	.	.	.	.	4g\	ec-	4g\	ec-	4b-\	ec-	4dd\	ec-
.	.	.	.	.	.	.	.	4g\	-ce	4g\	-ce	4b-\	-ce	4dd\	-ce
!	!	!	!	!LO:LB:g=original	!	!	!	!	!	!	!	!	!	!	!
0r	.	0r	.	0r	.	0r	.	2g\	e-	2g\	e-	2b-\	e-	2dd\	e-
.	.	.	.	.	.	.	.	2d\	-xal-	2b-\	-xal-	2dd\	-xal-	2ffny\	-xal-
=51-	=51-	=51-	=51-	=51-	=51-	=51-	=51-	=51-	=51-	=51-	=51-	=51-	=51-	=51-	=51-
*	*	*	*	*	*	*	*	*custos:f	*	*	*	*	*	*	*
.	.	.	.	.	.	.	.	2e-X\	-ta-	2b-\	-ta-	2cc\	-ta-	2ee-X\	-ta-
!	!	!	!	!	!	!	!	!LO:LB:g=original	!	!	!	!	!	!	!
.	.	.	.	.	.	.	.	2f\	-ta	2a\	-ta	2a\	-ta	2cc\	-ta
2r	.	2r	.	2r	.	2r	.	1B-	es	1b-	es	1b-	es	1dd	es
4B-/	ec-	4f\	ec-	4b-\	ec-	4dd\	ec-	.	.	.	.	.	.	.	.
4B-/	-ce	4f\	-ce	4b-\	-ce	4dd\	-ce	.	.	.	.	.	.	.	.
=52-	=52-	=52-	=52-	=52-	=52-	=52-	=52-	=52-	=52-	=52-	=52-	=52-	=52-	=52-	=52-
2F/	e-	2b-\	e-	2b-\	e-	2dd\	e-	0r	.	0r	.	0r	.	0r	.
*custos:B-	*	*	*	*	*	*custos:dd	*	*	*	*	*	*	*	*	*
2G/	-xal-	2a\	-xal-	2cc\	-xal-	2cc\	-xal-	.	.	.	.	.	.	.	.
!LO:LB:g=original	!	!	!	!	!	!LO:LB:g=original	!	!	!	!	!	!	!	!	!
2B-/	-ta-	2g\	-ta-	2b-\	-ta-	2dd\	-ta-	.	.	.	.	.	.	.	.
2c/	-ta	2e/	-ta	2g/	-ta	2cc\	-ta	.	.	.	.	.	.	.	.
=53-	=53-	=53-	=53-	=53-	=53-	=53-	=53-	=53-	=53-	=53-	=53-	=53-	=53-	=53-	=53-
*	*	*	*	*	*	*	*	*	*	*	*	*custos:dd	*	*	*
2F/	es	2f\	es	2a\	es	2cc\	e	1r	.	1r	.	1r	.	1r	.
4B-/	su-	4f\	ſu-	4b-\	su-	4dd\	su-	.	.	.	.	.	.	.	.
*	*	*custos:f	*	*	*	*	*	*	*	*	*	*	*	*	*
4c/	-per	4f\	-per	4b-\	-per	4ee\	-per	.	.	.	.	.	.	.	.
!	!	!LO:LB:g=original	!	!	!	!	!	!	!	!	!	!LO:LB:g=original	!	!	!
2d\	cho-	2f\	cho-	2b-\	cho-	2ff\	cho-	2r	.	2r	.	2r	.	2r	.
2B-/	-rus	2f\	-ros	2b-\	-ros	2dd\	-ros	4B-/	su-	4f\	ſu-	4dd\	su-	4dd\	su-
.	.	.	.	.	.	.	.	4c/	-per	4f\	-p(er)	4cc\	-per	4eeny\	-per
=54-	=54-	=54-	=54-	=54-	=54-	=54-	=54-	=54-	=54-	=54-	=54-	=54-	=54-	=54-	=54-
2r	.	2r	.	2r	.	2r	.	2d\	cho-	2f\	cho-	2b-\	cho-	2ff\	cho-
4B-/	su-	4f\	su-	4b-\	su-	4dd\	su-	2B-/	-ros	2f\	-ros	2dd\	-ros	2dd\	-ros
4c/	-per	4f\	-per	4b-\	-per	4ee\	-p(er)	.	.	.	.	.	.	.	.
2d\	cho-	2f\	cho-	2b-\	cho-	2ff\	cho-	2r	.	2r	.	2r	.	2r	.
2B-/	-rus	2f\	-ros	2b-\	-ros	2dd\	-ros	4B-/	su-	4f\	ſu-	4dd\	su-	4dd\	ſu-
.	.	.	.	.	.	.	.	4c/	-per	4f\	-per	4cc\	-per	4ee\	-per
=55-	=55-	=55-	=55-	=55-	=55-	=55-	=55-	=55-	=55-	=55-	=55-	=55-	=55-	=55-	=55-
1r	.	1r	.	1r	.	1r	.	2d\	cho-	2f\	cho-	2b-\	cho-	2ff\	cho-
*	*	*	*	*	*	*	*	*	*	*custos:g	*	*	*	*	*
.	.	.	.	.	.	.	.	2B-/	-ros	2f\	-ros	2b-\	-ros	2dd\	-ros
!	!	!	!	!	!	!	!	!	!	!LO:PB:g=original	!	!	!	!	!
1.e-X	An-	1.g	An-	1.g	An-	1.b-	An-	1.e-X	An-	1.g	An-	1.b-	An-	1.ee-X	An-
=56-	=56-	=56-	=56-	=56-	=56-	=56-	=56-	=56-	=56-	=56-	=56-	=56-	=56-	=56-	=56-
2B-/	-ge-	2d/	-ge-	2b-\	-ge-	2b-/	-ge-	2f\	-ge-	2f\	-ge-	2b-\	-ge-	2dd\	-ge-
*	*	*	*	*	*	*	*	*	*	*	*	*	*	*lig	*
0F	-lo-	(2a\	-lo-	1ff	-lo-	2cc\	-lo-	0f	-lo-	0f	-lo-	2a\	-lo-	1ff	-lo-
.	.	2f\)	.	.	.	2dd\	.	.	.	.	.	2b-\	.	.	.
=57-	=57-	=57-	=57-	=57-	=57-	=57-	=57-	=57-	=57-	=57-	=57-	=57-	=57-	=57-	=57-
.	.	0f	-rum	0f	-rum	1cc	.	.	.	.	.	1a	.	1cc	.
*	*	*	*	*	*	*	*	*	*	*	*	*	*	*Xlig	*
*	*	*	*	*	*	*	*	*	*	*	*	*	*	*custos:ff	*
1B-	-rum	.	.	.	.	1b-	-rum	1B-	-rum	1f	-rum	1b-	-rum	1dd	-rum
!	!	!	!	!	!	!	!	!	!	!	!	!	!	!LO:PB:g=original	!
=58-	=58-	=58-	=58-	=58-	=58-	=58-	=58-	=58-	=58-	=58-	=58-	=58-	=58-	=58-	=58-
*M3/2	*	*M3/2	*	*M3/2	*	*M3/2	*	*M3/2	*	*M3/2	*	*M3/2	*	*M3/2	*
0B-	gau-	0f	Gau-	0b-	gau-	0dd	Gau-	00.r	.	00.r	.	00.r	.	00.r	.
1E-X	-dent	1g	-dent	1cc	-dent	1ee-X	-dent	.	.	.	.	.	.	.	.
=59-	=59-	=59-	=59-	=59-	=59-	=59-	=59-	=59-	=59-	=59-	=59-	=59-	=59-	=59-	=59-
1.F	An-	1.f	An-	1.a	An-	1.cc	An-	.	.	.	.	.	.	.	.
2F/	-ge-	2f\	-ge-	2a\	-ge-	2cc\	-ge-	.	.	.	.	.	.	.	.
*	*	*	*	*custos:dd	*	*	*	*	*	*	*	*	*	*	*
1B-	-li	1f	-li	1b-	-li	1dd	-li	.	.	.	.	.	.	.	.
!	!	!	!	!LO:PB:g=original	!	!	!	!	!	!	!	!	!	!	!
=60-	=60-	=60-	=60-	=60-	=60-	=60-	=60-	=60-	=60-	=60-	=60-	=60-	=60-	=60-	=60-
00.r	.	00.r	.	00.r	.	00.r	.	00.r	.	00.r	.	0dd	Gau-	0ff	Gau-
.	.	.	.	.	.	.	.	.	.	.	.	1b-	-dent	1dd	-dent
=61-	=61-	=61-	=61-	=61-	=61-	=61-	=61-	=61-	=61-	=61-	=61-	=61-	=61-	=61-	=61-
*	*	*	*	*	*	*	*	*	*	*	*	*	*	*	*ij
.	.	.	.	.	.	.	.	.	.	.	.	0dd	gau-	0ff	Gau-
.	.	.	.	.	.	.	.	.	.	.	.	1b-	-de(n)t	1dd,<	-dent
*	*	*	*	*	*	*	*	*	*	*	*	*	*	*	*Xij
=62-	=62-	=62-	=62-	=62-	=62-	=62-	=62-	=62-	=62-	=62-	=62-	=62-	=62-	=62-	=62-
00.r	.	00.r	.	00.r	.	00.r	.	0B-	Gau-	0f	Gau-	0b-	gau-	0dd	Gau-
.	.	.	.	.	.	.	.	1F	-dent	1f	-dent	1a	-dent	1cc	-dent
=63-	=63-	=63-	=63-	=63-	=63-	=63-	=63-	=63-	=63-	=63-	=63-	=63-	=63-	=63-	=63-
.	.	.	.	.	.	.	.	1.c	An-	1.e	An-	1.g	An-	1.cc	An-
.	.	.	.	.	.	.	.	2c/	-ge-	2e/	-ge-	2g/	-ge-	2cc\	-ge-
.	.	.	.	.	.	.	.	1F	-li	1f	-li	1a	-li	1a	-li
=64-	=64-	=64-	=64-	=64-	=64-	=64-	=64-	=64-	=64-	=64-	=64-	=64-	=64-	=64-	=64-
0B-	gau-	0b-	gau-	0dd	gau-	0dd	gau-	00.r	.	00.r	.	00.r	.	00.r	.
*	*	*	*	*	*	*custos:dd	*	*	*	*	*	*	*	*	*
1c	-dent	1a	-dent	1cc	-dent	1ee-X	-dent	.	.	.	.	.	.	.	.
!	!	!	!	!	!	!LO:PB:g=original	!	!	!	!	!	!	!	!	!
=65-	=65-	=65-	=65-	=65-	=65-	=65-	=65-	=65-	=65-	=65-	=65-	=65-	=65-	=65-	=65-
1.d	An-	1.f#X	An-	1.a	An-	1.dd	An-	.	.	.	.	.	.	.	.
*custos:d	*	*	*	*	*	*	*	*	*	*	*	*	*	*	*
2d\	-ge-	2f#\	-ge-	2a\	-ge-	2dd\	-ge-	.	.	.	.	.	.	.	.
*	*	*custos:g	*	*	*	*	*	*	*	*	*	*	*	*	*
!LO:PB:g=original	!	!	!	!	!	!	!	!	!	!	!	!	!	!	!
1d	-li	1f#	-li	1a	-li	1dd	-li	.	.	.	.	.	.	.	.
!	!	!LO:PB:g=original	!	!	!	!	!	!	!	!	!	!	!	!	!
=66-	=66-	=66-	=66-	=66-	=66-	=66-	=66-	=66-	=66-	=66-	=66-	=66-	=66-	=66-	=66-
*	*	*	*	*	*	*	*	*	*	*	*	*custos:b-	*	*	*
1e-X	lau-	1g	lau-	1g	lau-	1cc	lau-	0.r	.	0.r	.	0.r	.	0.r	.
0d\	-dan-	(1g\	-dan-	0a\	-dan-	0dd\	-dan-	.	.	.	.	.	.	.	.
.	.	1f#y)	.	.	.	.	.	.	.	.	.	.	.	.	.
!	!	!	!	!	!	!	!	!	!	!	!	!LO:PB:g=original	!	!	!
=67-	=67-	=67-	=67-	=67-	=67-	=67-	=67-	=67-	=67-	=67-	=67-	=67-	=67-	=67-	=67-
0.G	-tes	0g	-tes	0b-	-tes	0.b-	-tes	0g	gau-	0g	gau-	0b-	Gau-	0dd	gau-
*	*	*	*	*	*	*	*	*custos:d	*	*	*	*	*	*	*
.	.	1r	.	1r	.	.	.	1eny	-dent	1g	-dent	1cc	-dent	1eeny	-dent
!	!	!	!	!	!	!	!	!LO:PB:g=original	!	!	!	!	!	!	!
=68-	=68-	=68-	=68-	=68-	=68-	=68-	=68-	=68-	=68-	=68-	=68-	=68-	=68-	=68-	=68-
00.r	.	00.r	.	00.r	.	00.r	.	1.d	An-	1.a	An-	1.dd	An-	1.ff	An-
.	.	.	.	.	.	.	.	2d\	-ge-	2a\	-ge-	2dd\	-ge-	2ff\	-ge-
.	.	.	.	.	.	.	.	1d	-li	1a	-li	1dd	-li	1ff	-li
=69-	=69-	=69-	=69-	=69-	=69-	=69-	=69-	=69-	=69-	=69-	=69-	=69-	=69-	=69-	=69-
.	.	.	.	.	.	.	.	1d	lau-	1a	lau-	1dd	lau-	1ff	lau-
.	.	.	.	.	.	.	.	0a\	-dan-	0a\	-dan-	(1dd\	-dan-	0ee\	-dan-
.	.	.	.	.	.	.	.	.	.	.	.	1cc#X)	.	.	.
=70-	=70-	=70-	=70-	=70-	=70-	=70-	=70-	=70-	=70-	=70-	=70-	=70-	=70-	=70-	=70-
!	!	!	!	!	!	!	!	!	!	!LO:TX:b:t=P:problem=# below	!	!	!	!	!
0.r	.	0.r	.	0.r	.	0.r	.	0.d	-tes	0.f#X	-tes	0.dd	-tes	0.dd	-tes
=71-	=71-	=71-	=71-	=71-	=71-	=71-	=71-	=71-	=71-	=71-	=71-	=71-	=71-	=71-	=71-
1.B-	be-	1.fny	be-	1.b-	be-	1.dd	be-	0.r	.	0.r	.	0.r	.	0.r	.
2B-/	-ne-	2f\	-ne-	2b-\	-ne-	2dd\	-ne-	.	.	.	.	.	.	.	.
2B-/	-di-	2f\	-di-	2b-\	-di-	2dd\	-di-	.	.	.	.	.	.	.	.
2B-/	-cunt	2f\	-cunt	2b-\	-cunt	2dd\	-cunt	.	.	.	.	.	.	.	.
=72-	=72-	=72-	=72-	=72-	=72-	=72-	=72-	=72-	=72-	=72-	=72-	=72-	=72-	=72-	=72-
1.F	Do-	1.a	Do-	1.a	Do-	1.cc	Do-	1.f	be-	1.fny	be-	1.g	be-	1.ff	be-
2F/	-mi-	2a\	-mi-	2a\	-mi-	2cc\	-mi-	2f\	-ne-	2f\	-ne-	2g/	-ne-	2ff\	-ne-
1F	-num	1a	-num	1a,<	-num	1cc	-num	2f\	-di-	2f\	-di-	2g/	-di-	2ff\	-di-
.	.	.	.	.	.	.	.	2f\	-cunt	2f\	-cunt	2g/	-cunt	2ff\	-cunt
=73-	=73-	=73-	=73-	=73-	=73-	=73-	=73-	=73-	=73-	=73-	=73-	=73-	=73-	=73-	=73-
1.c	be-	1.g	be-	1.cc	be-	1.cc	be-	1.c	Do-	1.g	Do-	1.g	Do-	1.ee-X	Do-
*	*	*	*	*	*	*	*	*	*	*custos:g	*	*	*	*custos:ee-	*
2c/	-ne-	2g\	-ne-	2cc\	-ne-	2cc\	-ne-	2c/	-mi-	2g\	-mi-	2g/	-mi-	2ee-\	-mi-
!	!	!	!	!	!	!	!	!	!	!LO:LB:g=original	!	!	!	!LO:LB:g=original	!
2c/	-di-	2g\	-di-	2cc\	-di-	2cc\	-di-	1c	-num	1g	-num	1g	-num	1ee-	-num
2c/	-cunt	2g\	-cunt	2cc\	-cunt	2cc\	-cu(n)t	.	.	.	.	.	.	.	.
=74-	=74-	=74-	=74-	=74-	=74-	=74-	=74-	=74-	=74-	=74-	=74-	=74-	=74-	=74-	=74-
*	*	*	*	*	*	*	*	*	*	*	*	*	*ij	*	*
1.G	D(o-	1.g	D(o-	1.b-	D(o-	1.dd	D(o-	1.g	be-	1.g	be-	1.b-	be-	1.dd	be-
2G/	-mi)-	2g\	-mi)-	2b-\	-mi)-	2dd\	-mi)-	2g\	-ne-	2g\	-ne-	2b-\	-ne-	2dd\	-ne-
*	*	*	*	*custos:dd	*	*	*	*	*	*	*	*	*	*	*
1G,<	-num	1g	-num	1b-	-num	1dd	-num	2g\	-di-	2g\	-di-	2b-\	-di-	2dd\	-di-
.	.	.	.	.	.	.	.	2g\	-cunt	2g\	-cunt	2b-\	-cunt	2dd\	-cunt
!	!	!	!	!LO:LB:g=original	!	!	!	!	!	!	!	!	!	!	!
=75-	=75-	=75-	=75-	=75-	=75-	=75-	=75-	=75-	=75-	=75-	=75-	=75-	=75-	=75-	=75-
!	!	!LO:TX:b:t=P:problem=# below	!	!	!	!	!	!	!	!	!	!	!	!	!
0d	be-	0f#X	be-	0dd	be-	0dd	be-	1.d	Do-	1.a	Do-	1.a	Do-	1.dd	Do-
.	.	.	.	.	.	.	.	2d\	-mi-	2a\	-mi-	2a\	-mi-	2dd\	-mi-
!	!	!LO:TX:b:t=P:problem=# below	!	!	!	!	!	!	!	!	!	!	!	!	!
1d	-ne-	1f#X	-ne-	1dd	-ne-	1dd	-ne-	1d	-num	1a	-num	1a,<	-num	1dd,<	-num
*	*	*	*	*	*	*	*	*	*	*	*	*	*Xij	*	*
=76-	=76-	=76-	=76-	=76-	=76-	=76-	=76-	=76-	=76-	=76-	=76-	=76-	=76-	=76-	=76-
!	!	!	!	!	!	!	!	!	!	!	!	!LO:TX:t=P:problem=niewyraźne źródło	!	!	!
0G	-di-	0g	-di-	0dd	-di-	0b-	-di-	1.g	be-	1.g	be-	1.b-	be-	1.dd	be-
*	*	*	*	*	*	*	*	*custos:g	*	*	*	*custos:b-	*	*	*
!	!	!	!	!	!	!	!	!LO:TX:t=P:problem=niewyraźne źródło	!	!	!	!	!	!	!
.	.	.	.	.	.	.	.	2g\	-ne-	2g\	-ne-	2b-\	-ne-	2dd\	-ne-
*custos:d	*	*	*	*	*	*	*	*	*	*	*	*	*	*	*
!	!	!	!	!	!	!	!	!LO:LB:g=original	!	!	!	!LO:LB:g=original	!	!	!
1G	-cunt	1g	-cunt	1dd	-cunt	1b-	-cu(n)t	2g\	-di-	2g\	-di-	2b-\	-di-	2dd\	-di-
.	.	.	.	.	.	.	.	2g\	-cunt	2g\	-cunt	2b-\	-cunt	2dd\	-cunt
!LO:LB:g=original	!	!	!	!	!	!	!	!	!	!	!	!	!	!	!
=77-	=77-	=77-	=77-	=77-	=77-	=77-	=77-	=77-	=77-	=77-	=77-	=77-	=77-	=77-	=77-
0d	Do-	0g	Do-	0dd	Do-	0dd	Do-	0d	Do-	0a	Do-	0a	Do-	0dd	Do-
*	*	*custos:g	*	*	*	*	*	*	*	*	*	*	*	*	*
*	*	*	*	*	*	*custos:dd	*	*	*	*	*	*	*	*	*
!	!	!LO:TX:b:t=P:problem=# below	!	!	!	!	!	!	!	!	!	!	!	!	!
1d	-mi-	1f#X	-mi-	1dd	-mi-	1dd	-mi-	1d	-mi-	1a	-mi-	1a	-mi-	1dd	-mi-
!	!	!LO:LB:g=original	!	!	!	!LO:LB:g=original	!	!	!	!	!	!	!	!	!
=78-	=78-	=78-	=78-	=78-	=78-	=78-	=78-	=78-	=78-	=78-	=78-	=78-	=78-	=78-	=78-
*M2/1	*	*M2/1	*	*M2/1	*	*M2/1	*	*M2/1	*	*M2/1	*	*M2/1	*	*M2/1	*
*met(C|)	*	*met(C|)	*	*met(C|)	*	*met(C|)	*	*met(C|)	*	*met(C|)	*	*met(C|)	*	*met(C|)	*
!	!	!	!	!LO:N:acc=#	!	!	!	!	!	!	!	!LO:N:acc=#	!	!	!
1G	-num	1g	-num	1bn	-num	1dd	-num	2g,<\	-num	2g,<\	-num	2bn,<\	-num	1dd	-num
.	.	.	.	.	.	.	.	2g\	Al-	2g\	Al-	2b\	Al-	.	.
00r	.	00r	.	00r	.	00r	.	4.e\	-le-	4.g\	-le-	4.ccny\	-le-	2r	.
.	.	.	.	.	.	.	.	8e\	-lu-	8g\	-lu-	8cc\	-lu-	.	.
.	.	.	.	.	.	.	.	4f,<\	-ia	4a\	-ia	4a\	-ia	2cc\	Al-
.	.	.	.	.	.	.	.	4f\	Al-	4a\	al-	4a\	al-	.	.
=79-	=79-	=79-	=79-	=79-	=79-	=79-	=79-	=79-	=79-	=79-	=79-	=79-	=79-	=79-	=79-
.	.	.	.	.	.	.	.	4.d\	-le-	4.f\	-le-	4.b-y\	-le-	4.ff\	-le-
.	.	.	.	.	.	.	.	8d\	-lu-	8f\	-lu-	8b-\	-lu-	8ff\	-lu-
.	.	.	.	.	.	.	.	4e-X,<\	-ia	4g,<\	-ia	4g/	-ia	4b-,</	-ia
.	.	.	.	.	.	.	.	4e-\	al-	4g\	al-	4g/	Al-	4b-/	Al-
.	.	.	.	.	.	.	.	2.c/	-le-	2.a\	-le-	2.cc\	-le-	2.ee-X\	-le-
*	*	*	*	*	*	*	*	*	*	*custos:f	*	*	*	*	*
.	.	.	.	.	.	.	.	4c/	-lu-	4a\	-lu-	4cc\	-lu-	4ee-\	-lu-
!	!	!	!	!	!	!	!	!	!	!LO:LB:g=original	!	!	!	!	!
=80-	=80-	=80-	=80-	=80-	=80-	=80-	=80-	=80-	=80-	=80-	=80-	=80-	=80-	=80-	=80-
.	.	.	.	.	.	.	.	2d\	-ia	2f\	-ia	2a,<\	-ia	4dd\	-ia
*	*	*	*	*	*	*	*	*	*	*	*	*	*	*custos:dd	*
.	.	.	.	.	.	.	.	.	.	.	.	.	.	4dd,<\	Al-
!	!	!	!	!	!	!	!	!	!	!	!	!	!	!LO:LB:g=original	!
.	.	.	.	.	.	.	.	2B-/	al-	2b-\	al-	2b-\	al-	4.dd\	-le-
.	.	.	.	.	.	.	.	.	.	.	.	.	.	8eeny\	-lu-
0r	.	0r	.	0r	.	0r	.	4B-/	-le-	4b-\	-le-	4dd\	-le-	2ff,<\	-ia
.	.	.	.	.	.	.	.	4c/	.	8a\L	.	4cc\	.	.	.
.	.	.	.	.	.	.	.	.	.	8g\J	.	.	.	.	.
.	.	.	.	.	.	.	.	4.d\	.	4.f\	.	4.b-\	.	2ff\	Al-
.	.	.	.	.	.	.	.	8eny\	.	8g\	.	16a\LL	.	.	.
.	.	.	.	.	.	.	.	.	.	.	.	16g\JJ	.	.	.
=81-	=81-	=81-	=81-	=81-	=81-	=81-	=81-	=81-	=81-	=81-	=81-	=81-	=81-	=81-	=81-
.	.	.	.	.	.	.	.	2f\	.	4a\	.	4a\	.	4cc\	-le-
.	.	.	.	.	.	.	.	.	.	4f\	.	2b-\	-lu-	4dd\	.
*	*	*	*	*	*	*	*	*custos:B-	*	*	*	*	*	*	*
.	.	.	.	.	.	.	.	2f\	-lu-	2f\	-lu-	.	.	4.cc\	.
.	.	.	.	.	.	.	.	.	.	.	.	4a\	.	.	.
.	.	.	.	.	.	.	.	.	.	.	.	.	.	8cc\	-lu-
*	*	*	*	*	*	*	*	*	*	*	*	*custos:b-	*	*	*
!	!	!	!	!	!	!	!	!LO:LB:g=original	!	!	!	!	!	!	!
2r	.	2r	.	2r	.	2r	.	1B-	-ia	1b-	-ia	1b-	-ia	1dd	-ia
2B-/	Al-	2fny\	Al-	2b-y\	Al-	2dd\	Al-	.	.	.	.	.	.	.	.
!	!	!	!	!	!	!	!	!	!	!	!	!LO:LB:g=original	!	!	!
=82-	=82-	=82-	=82-	=82-	=82-	=82-	=82-	=82-	=82-	=82-	=82-	=82-	=82-	=82-	=82-
4.G/	-le-	4.g\	-le-	4.b-\	-le-	4.dd\	-le-	0r	.	0r	.	0r	.	0r	.
8G/	-lu-	8g\	-lu-	8b-\	-lu-	8dd\	-lu-	.	.	.	.	.	.	.	.
4c/	-ia	4g\	-ia	4cc,<\	-ia	4ee-X\	-ia	.	.	.	.	.	.	.	.
4c/	al-	4g\	al-	4cc\	al-	4ee-\	al-	.	.	.	.	.	.	.	.
4.F/	-le-	4.f\	-le-	4.a\	-le-	4.cc\	-le-	.	.	.	.	.	.	.	.
8F/	-lu-	8f\	-lu-	8a\	-lu-	8cc\	-lu-	.	.	.	.	.	.	.	.
4B-/	-ia	4f,<\	-ia	4b-\	-ia	4dd\	-ia	.	.	.	.	.	.	.	.
4B-/	Al-	4b-\	Al-	4b-\	Al-	4dd\	al-	.	.	.	.	.	.	.	.
=83-	=83-	=83-	=83-	=83-	=83-	=83-	=83-	=83-	=83-	=83-	=83-	=83-	=83-	=83-	=83-
2c/	-le-	2g\	-le-	2a\	-le-	2ee-X\	-le-	1r	.	1r	.	1r	.	1r	.
2d\	-lu-	2f#X\	-lu-	2a\	-lu-	2dd\	-lu-	.	.	.	.	.	.	.	.
1G	-ia	1g	-ia	1g	-ia	1b-	-ia	2r	.	2r	.	2r	.	2r	.
.	.	.	.	.	.	.	.	2g\	Al-	2g\	Al-	2b-\	al-	2dd\	Al-
=84-	=84-	=84-	=84-	=84-	=84-	=84-	=84-	=84-	=84-	=84-	=84-	=84-	=84-	=84-	=84-
1r	.	1r	.	1r	.	1r	.	2.d\	-le-	2.a\	-le-	2.dd\	-le-	2.ff\	-le-
.	.	.	.	.	.	.	.	4d\	-lu-	4a\	-lu-	4dd\	-lu-	4ff\	-lu-
2r	.	2r	.	2r	.	2r	.	1a	-ia	1a	-ia	1cc	-ia	1ee	-ia
2A/	Al-	2a\	al-	2cc\	al-	2cc\	al-	.	.	.	.	.	.	.	.
=85-	=85-	=85-	=85-	=85-	=85-	=85-	=85-	=85-	=85-	=85-	=85-	=85-	=85-	=85-	=85-
2F/	-le-	2a\	-le-	2cc\	-le-	2dd\	-le-	1r	.	1r	.	1r	.	1r	.
*	*	*	*	*custos:cc	*	*	*	*	*	*	*	*	*	*	*
!	!	!	!	!LO:N:acc=#	!	!	!	!	!	!	!	!	!	!	!
2G/	-lu-	2g\	-lu-	2bn\	-lu-	2dd\	-lu-	.	.	.	.	.	.	.	.
!	!	!	!	!LO:LB:g=original	!	!	!	!	!	!	!	!	!	!	!
1.c	-ia	1e	-ia	1cc	-ia,	1cc	-ia	2c/	Al-	2e/	al-	2g/	al-	2cc\	Al-
.	.	.	.	.	.	.	.	2.c/	-le-	2.e/	-le-	2.g/	-le-	2.cc\	-le-
=86-	=86-	=86-	=86-	=86-	=86-	=86-	=86-	=86-	=86-	=86-	=86-	=86-	=86-	=86-	=86-
.	.	2r	.	2r	.	2r	.	.	.	.	.	.	.	.	.
.	.	.	.	.	.	.	.	4c/	-lu-	4e/	-lu-	4g/	-lu-	4cc\	-lu-
2F/	al-	2fny\	Al-	2a\	al-	2cc\	al-	4f\	-ia	4f,<\	-ia	4a\	-ia	4cc,<\	-ia
.	.	.	.	.	.	.	.	4f\	al-	4f\	al-	4a\	al-	4cc\	Al-
2.B-/	-le-	2.d/	-le-	2.f/	-le-	2.b-/	-le-	2.B-/	-le-	2.f\	-le-	2.b-\	-le-	2.dd\	-le-
*custos:F	*	*	*	*	*	*	*	*	*	*	*	*	*	*	*
4B-/	-lu-	4d/	-lu-	4f/	-lu-	4b-/	-lu-	4B-/	-lu-	4f\	-lu-	4b-\	-lu-	4ee\	-lu-
!LO:LB:g=original	!	!	!	!	!	!	!	!	!	!	!	!	!	!	!
=87-	=87-	=87-	=87-	=87-	=87-	=87-	=87-	=87-	=87-	=87-	=87-	=87-	=87-	=87-	=87-
!	!	!LO:TX:t=P:problem=niewyraźne źródło	!	!	!	!	!	!	!	!	!	!	!	!	!
2F/	-ia	2f\	-ia	2f/	-ia	2a/	-ia	1f	-ia	1a	-ia	1cc	-ia	1ff	-ia
*	*	*custos:e	*	*	*	*custos:cc	*	*	*	*	*	*	*	*	*
2F/	al-	2f\	al-	2a\	al-	2a/	al-	.	.	.	.	.	.	.	.
!	!	!LO:LB:g=original	!	!	!	!LO:LB:g=original	!	!	!	!	!	!	!	!	!
2.c/	-le-	2.e/	-le-	2.g/	-le-	2.cc\	-le-	1r	.	1r	.	1r	.	1r	.
4c/	-lu-	4f#X\	-lu-	4g/	-lu-	4cc\	-lu-	.	.	.	.	.	.	.	.
=88-	=88-	=88-	=88-	=88-	=88-	=88-	=88-	=88-	=88-	=88-	=88-	=88-	=88-	=88-	=88-
1G	-ia	1g	-ia	1b-y	-ia	1b-	-ia	2r	.	2r	.	2r	.	2r	.
*	*	*	*	*	*	*	*	*	*	*	*	*	*	*custos:ff	*
.	.	.	.	.	.	.	.	2g\	al-	2g\	Al-	2b-\	al-	2dd\	al-
!	!	!	!	!	!	!	!	!	!	!	!	!	!	!LO:LB:g=original	!
2r	.	0r	.	2r	.	2r	.	2.d\	-le-	1.f	-le-	2dd\	-le-	2.ff\	-le-
2d\	al-	.	.	2f/	Al-	2dd\	al-	.	.	.	.	2a\	-lu-	.	.
.	.	.	.	.	.	.	.	4c/	.	.	.	.	.	4ee\	.
=89-	=89-	=89-	=89-	=89-	=89-	=89-	=89-	=89-	=89-	=89-	=89-	=89-	=89-	=89-	=89-
2.d\	-le-	.	.	4.f/	-le-	2.dd\	-le-	4B-/	.	.	.	2b-,<\	-ia	4dd\	.
.	.	.	.	.	.	.	.	4A/	.	.	.	.	.	4cc\	.
.	.	.	.	8f/	-lu-	.	.	.	.	.	.	.	.	.	.
.	.	.	.	1b-\	-ia	.	.	1G/	.	2g\	-lu-	2b-\	al-	4b-/	.
4c/	.	.	.	.	.	4dd\	-lu-	.	.	.	.	.	.	4a/	.
*	*	*	*	*	*	*	*	*	*	*custos:a	*	*	*	*	*
4B-/	.	2r	.	.	.	2dd\	-ia	.	.	1g	-ia	2.b-\	-le-	2b-/	.
4A/	.	.	.	.	.	.	.	.	.	.	.	.	.	.	.
4.G/	.	2g\	al-	2dd\	al-	2dd\	al-	2g\	-lu-	.	.	.	.	2b-/	-lu-
.	.	.	.	.	.	.	.	.	.	.	.	4b-\	-lu-	.	.
8G/	-lu-	.	.	.	.	.	.	.	.	.	.	.	.	.	.
!	!	!	!	!	!	!	!	!	!	!LO:LB:g=original	!	!	!	!	!
=90-	=90-	=90-	=90-	=90-	=90-	=90-	=90-	=90-	=90-	=90-	=90-	=90-	=90-	=90-	=90-
2d\	-ia	2f#X\	-le-	4dd\	-le-	1.dd	-le-	2d\	-ia	(2a\	Al-	2a,<\	-ia	2dd\	-ia.
.	.	.	.	4cc\	.	.	.	.	.	.	.	.	.	.	.
*	*	*	*	*	*	*	*	*custos:d	*	*	*	*	*	*	*
2G/	al-	2g\	-lu-	4b-\	.	.	.	2g\	Al-	2g\)	.	2b-\	al-	(4dd\	Al-
.	.	.	.	4cc\	.	.	.	.	.	.	.	.	.	4ee\)	.
!	!	!	!	!	!	!	!	!LO:LB:g=original	!	!	!	!	!	!	!
1.d	-le-	2f#X\	-ia	1.dd	.	.	.	1.d	-le-	(2a\	-le-	2a\	-le-	2ff#X\	-le-
.	.	2d/	al-	.	.	2dd\	-lu-	.	.	2g\)	.	2b-\	-lu-	1gg\	.
=91-	=91-	=91-	=91-	=91-	=91-	=91-	=91-	=91-	=91-	=91-	=91-	=91-	=91-	=91-	=91-
*	*	*	*	*	*	*	*	*	*	*	*	*custos:b	*	*	*
.	.	2.d/	-le-	.	.	1dd	-ia	.	.	2.a\	.	1a	.	.	.
2d\	-lu-	.	.	2dd\	-lu-	.	.	2d\	-lu-	.	.	.	.	2ff#X\	-lu-
.	.	4d/	-lu-	.	.	.	.	.	.	4a\	-lu-	.	.	.	.
!	!	!	!	!	!	!	!	!	!	!	!	!LO:LB:g=original	!	!	!
!	!	!	!	!	!	!	!	!	!	!	!	!LO:N:acc=#	!	!	!
2G/	-ia	2d/	-ia	2dd,<\	-ia	2r	.	2g\	-ia	1.g	-ia	1bn	-ia	2gg\	-ia
2F/	al-	(4g\	al-	2g/	al-	2dd\	al-	2g\	al-	.	.	.	.	2dd\	al-
.	.	4fny\)	.	.	.	.	.	.	.	.	.	.	.	.	.
=92-	=92-	=92-	=92-	=92-	=92-	=92-	=92-	=92-	=92-	=92-	=92-	=92-	=92-	=92-	=92-
2.c/	-le-	(4e-X/	-le-	2.g/	-le-	2.cc\	-le-	2.c/	-le-	.	.	2.cc\	al-	2.ee-X\	-le-
.	.	4d/)	.	.	.	.	.	.	.	.	.	.	.	.	.
.	.	4.e-X/	.	.	.	.	.	.	.	2g\	Al-	.	.	.	.
4c/	-lu-	.	.	4g/	-lu-	4cc\	-lu-	4c/	-lu-	.	.	4cc\	-le-	4ee-\	-lu-
.	.	8e-/	-lu-	.	.	.	.	.	.	.	.	.	.	.	.
*	*	*	*	*custos:b-	*	*	*	*	*	*	*	*	*	*	*
2c,</	-ia	2g\	-ia	2g/	-ia	2cc\	-ia	2c/	-ia	2.g\	-le-	2b-y\	-lu-	2ee-\	-ia
!	!	!	!	!LO:LB:g=original	!	!	!	!	!	!	!	!	!	!	!
2G/	al-	2ryy	.	2b-\	al-	2dd\	al-	2g\	Al-	.	.	2b-\	-ia	2dd\	Al-
.	.	.	.	.	.	.	.	.	.	4g\	-lu-	.	.	.	.
=93-	=93-	=93-	=93-	=93-	=93-	=93-	=93-	=93-	=93-	=93-	=93-	=93-	=93-	=93-	=93-
1.d	-le-	2f#X\	Al-	1.dd	-le-	1.dd	-le-	1.d	-le-	2a\	-ia	2a\	Al-	1.dd	-le-
.	.	1g\	-le-	.	.	.	.	.	.	2g\	Al-	2b-\	.	.	.
.	.	.	.	.	.	.	.	.	.	2.a\	-le-	2.a\	le-	.	.
2d\	-lu-	2f#X\	-lu-	2a\	-lu-	2dd\	-lu-	2d\	-lu-	.	.	.	.	2dd\	-lu-
.	.	.	.	.	.	.	.	.	.	4a\	-lu-	4a\	-lu-	.	.
=94-	=94-	=94-	=94-	=94-	=94-	=94-	=94-	=94-	=94-	=94-	=94-	=94-	=94-	=94-	=94-
*	*	*	*	*	*	*	*	*	*	*	*	*	*	*custos:dd	*
!	!	!	!	!	!	!LO:SIC:v:s=1bn	!	!	!	!	!	!LO:N:acc=#	!	!	!
1G	-ia	1g	-ia	1g	-ia	1b-	-ia	1g	-ia	1g	-ia	1bn	-ia	1dd	-ia
!LO:LB:g=original	!	!	!	!	!	!	!	!	!	!	!	!	!	!LO:LB:g=original	!
0r	.	0r	.	0r	.	0r	.	2r	.	2r	.	2r	.	2r	.
.	.	.	.	.	.	.	.	4g\	ec-	4g\	ec-	4b-y\	ec-	4dd\	ec-
.	.	.	.	.	.	.	.	4g\	-ce	4g\	-ce	4b-\	-ce	4dd\	-ce
=95-	=95-	=95-	=95-	=95-	=95-	=95-	=95-	=95-	=95-	=95-	=95-	=95-	=95-	=95-	=95-
.	.	.	.	.	.	.	.	2g\	e-	2g\	e-	2b-\	e-	2dd\	e-
.	.	.	.	.	.	.	.	2d\	-xal-	2a\	-xal-	2dd\	-xal-	2ffny\	-xal-
1r	.	1r	.	1r	.	1r	.	2g\	-ta-	2b-\	-ta-	2dd\	-ta-	2eeny\	-ta-
.	.	.	.	.	.	.	.	2a\	-ta	2a\	-ta	2cc#X\	-ta	2ee\	-ta
=96-	=96-	=96-	=96-	=96-	=96-	=96-	=96-	=96-	=96-	=96-	=96-	=96-	=96-	=96-	=96-
2r	.	2r	.	2r	.	2r	.	1d	es	1f	es	1dd	es	1dd	es
4d\	ec-	4fny\	ec-	4a\	ec-	4dd\	ec-	.	.	.	.	.	.	.	.
*	*	*custos:a	*	*	*	*custos:ff	*	*	*	*	*	*	*	*	*
4d\	-ce	4f\	-ce	4a\	-ce	4dd\	-ce	.	.	.	.	.	.	.	.
!	!	!LO:LB:g=original	!	!	!	!LO:LB:g=original	!	!	!	!	!	!	!	!	!
2d\	e-	2a\	e-	2dd\	e-	2ff\	e-	0r	.	0r	.	0r	.	0r	.
2A/	-xal-	2a\	-xal-	2cc\	-xal-	2eeny\	-xal-	.	.	.	.	.	.	.	.
=97-	=97-	=97-	=97-	=97-	=97-	=97-	=97-	=97-	=97-	=97-	=97-	=97-	=97-	=97-	=97-
2B-/	-ta-	2g\	-ta-	2b-\	-ta-	2dd\	-ta-	.	.	.	.	.	.	.	.
2c/	-ta	2eny/	-ta	2g/	-ta	2cc\	-ta	.	.	.	.	.	.	.	.
1F	es	1f	es	2a\	es	2cc\	es	1r	.	1r	.	1r	.	1r	.
.	.	.	.	4f/	su-	4a/	su-	.	.	.	.	.	.	.	.
.	.	.	.	4g/	-per	4a/	-per	.	.	.	.	.	.	.	.
=98-	=98-	=98-	=98-	=98-	=98-	=98-	=98-	=98-	=98-	=98-	=98-	=98-	=98-	=98-	=98-
2F/	su-	2f\	ſu-	2a\	cho-	2cc\	cho-	2r	.	2r	.	2r	.	2r	.
2F/	-per	2f\	-per	2f,</	-ros	2a/	-ros	4f\	su-	4a\	ſu-	4a\	ſu-	4cc\	ſu-
.	.	.	.	.	.	.	.	4f\	-per	4g\	-per	4b-\	-per	4cc\	-per
*	*	*	*	*	*ij	*	*	*	*	*	*	*	*	*	*
1F	cho-	1f	cho-	4f/	su-	4a/	su-	2f\	cho-	2f\	cho-	2ccny\	cho-	2ff\	cho-
.	.	.	.	4g/	-per	4b-/	-p(er)	.	.	.	.	.	.	.	.
*	*	*	*	*	*	*	*	*	*	*custos:f	*	*	*	*	*
.	.	.	.	4a\	cho-	4cc\	cho-	2f\	-ros	2f\	-ros	2a\	-ros	2cc\	-rus
.	.	.	.	4a,<\	-ros	4a/	-ros	.	.	.	.	.	.	.	.
*	*	*	*	*	*Xij	*	*	*	*	*	*	*	*	*	*
!	!	!	!	!	!	!	!	!LO:LB:g=original	!	!LO:LB:g=original	!	!	!	!	!
=99-	=99-	=99-	=99-	=99-	=99-	=99-	=99-	=99-	=99-	=99-	=99-	=99-	=99-	=99-	=99-
2B-,</	-ros	2f\	-ruos	4b-\	su-	4dd\	su-	4B-/	su-	4f\	su-	4f/	su-	4dd\	su-
.	.	.	.	4cc\	-per	4ee\	-per	4B-/	-per	4f\	-per	4f/	-per	4cc\	-per
*	*	*	*	*	*	*	*	*	*	*	*	*custos:dd	*	*	*
4B-/	su-	4f\	su-	2dd\	cho-	2ff\	cho-	2B-/	cho-	2f\	cho-	2b-\	cho-	2b-/	cho-
4B-/	-per	4f\	-p(er)	.	.	.	.	.	.	.	.	.	.	.	.
!	!	!	!	!	!	!	!	!	!	!	!	!LO:LB:g=original	!	!	!
1B-	cho-	1b-	cho-	2b-\	-ros	2dd,<\	-ros	2B-/	-ros	2f\	-ros	2dd\	-ros	2ff\	-rus
*	*	*	*	*	*ij	*	*ij	*	*	*	*	*	*	*	*
.	.	.	.	4b-\	su-	4dd\	su-	4B-/	su-	4b-\	ſu-	4ff\	su-	4dd\	su-
.	.	.	.	4cc\	-per	4ee\	-per	4B-/	-p(er)	4b-\	-per	4ee\	-per	4cc\	-per
=100-	=100-	=100-	=100-	=100-	=100-	=100-	=100-	=100-	=100-	=100-	=100-	=100-	=100-	=100-	=100-
*	*	*	*	*custos:b-	*	*	*	*	*	*	*	*	*	*	*
1B-	-rus	1f,<	-ros	2dd\	cho-	2ff\	cho-	2B-/	cho-	2b-\	cho-	2dd\	cho-	2b-/	cho-
!	!	!	!	!LO:LB:g=original	!	!	!	!	!	!	!	!	!	!	!
.	.	.	.	2b-\	-ros	2dd\	-ros	2B-/	-ros	2f\	-ros	2dd\	-ros	2ff\	-ros.
*	*	*	*	*	*Xij	*	*Xij	*	*	*	*	*	*	*	*
1.G	An-	1.g	An-	1.b-	An-	1.b-	An-	1.d	An-	1.g	An-	1.dd	An-	1.dd	An-
=101-	=101-	=101-	=101-	=101-	=101-	=101-	=101-	=101-	=101-	=101-	=101-	=101-	=101-	=101-	=101-
2G/	-ge-	2g\	-ge-	2b-\	-ge-	2b-/	-ge-	2g\	-ge-	2g\	-ge-	2dd\	-ge-	2gg\	-ge-
1d	-lo-	1a	-lo-	1a	-lo-	1dd	-lo-	1d	-lo-	1a	-lo-	1dd	-lo-	(2gg\	-lo-
.	.	.	.	.	.	.	.	.	.	.	.	.	.	2ff#X\)	.
=102-	=102-	=102-	=102-	=102-	=102-	=102-	=102-	=102-	=102-	=102-	=102-	=102-	=102-	=102-	=102-
1G	-rum	1g	-rum	1b-	-rum	1dd	-rum	2g,<\	-rum	2g\	-rum	2b-\	-rum	2gg\	-rum
.	.	.	.	.	.	.	.	4g\	ec-	4g\	ec-	4b-\	ec-	4dd\	ec-
*	*	*	*	*	*	*	*	*	*	*	*	*	*	*custos:dd	*
.	.	.	.	.	.	.	.	4g\	-ce	4g\	-ce	4b-\	-ce	4dd\	-ce
!	!	!	!	!LO:TX:t=P:problem=brak pauzy 0r	!	!	!	!	!	!	!	!	!	!LO:LB:g=original	!
0r	.	0r	.	0ryy	.	0r	.	2g\	e-	2g\	e-	2b-\	e-	2dd\	e-
.	.	.	.	.	.	.	.	2d\	-xal-	2b-\	-xal-	2dd\	-xal-	2ffny\	-xal-
=103-	=103-	=103-	=103-	=103-	=103-	=103-	=103-	=103-	=103-	=103-	=103-	=103-	=103-	=103-	=103-
.	.	.	.	.	.	.	.	2e-X\	-ta-	2b-\	-ta-	2cc\	-ta-	2ee-X\	-ta-
.	.	.	.	.	.	.	.	2f\	-ta	2a\	-ta	2a\	-ta	2cc\	-ta
2r	.	2r	.	2r	.	2r	.	1B-	es	1b-	es	1b-	es	1dd	es
4B-/	ec-	4f\	ec-	4b-\	ec-	4dd\	ec-	.	.	.	.	.	.	.	.
4B-/	-ce	4f\	-ce	4b-\	-ce	4dd\	-ce	.	.	.	.	.	.	.	.
=104-	=104-	=104-	=104-	=104-	=104-	=104-	=104-	=104-	=104-	=104-	=104-	=104-	=104-	=104-	=104-
2G/	e-	2b-\	e-	2b-\	e-	2dd\	e-	0r	.	0r	.	0r	.	0r	.
*custos:B-	*	*	*	*	*	*custos:dd	*	*	*	*	*	*	*	*	*
2A/	-xal-	2a\	-xal-	2cc\	-xal-	2cc\	-xal-	.	.	.	.	.	.	.	.
!LO:LB:g=original	!	!	!	!	!	!LO:LB:g=original	!	!	!	!	!	!	!	!	!
2B-/	-ta-	2g\	-ta-	2b-\	-ta-	2dd\	-ta-	.	.	.	.	.	.	.	.
2c/	-ta	2e/	-ta	2g/	-ta	2cc\	-ta	.	.	.	.	.	.	.	.
=105-	=105-	=105-	=105-	=105-	=105-	=105-	=105-	=105-	=105-	=105-	=105-	=105-	=105-	=105-	=105-
*	*	*custos:f	*	*	*	*	*	*	*	*	*	*	*	*	*
2F/	es	2f\	es	2a,<\	es	2cc\	es	1r	.	1r	.	1r	.	1r	.
!	!	!LO:LB:g=original	!	!	!	!	!	!	!	!	!	!	!	!	!
4B-/	su-	4f\	su-	4b-\	su-	4dd\	su-	.	.	.	.	.	.	.	.
4c/	-per	4f\	-per	4b-\	-per	4ee\	-per	.	.	.	.	.	.	.	.
2d\	cho-	2f\	cho-	2b-\	cho-	2ff\	cho-	2r	.	2r	.	2r	.	2r	.
2B-/	-ros	2f\	-ros	2b-\	-ros	2dd\	-ros	4B-/	su-	4f\	su-	4dd\	su-	4dd\	su-
.	.	.	.	.	.	.	.	4c/	-per	4f\	-per	4cc\	-per	4eeny\	-per
=106-	=106-	=106-	=106-	=106-	=106-	=106-	=106-	=106-	=106-	=106-	=106-	=106-	=106-	=106-	=106-
2r	.	2r	.	2r	.	2r	.	2d\	cho-	2f\	cho-	2b-\	cho-	2ff\	cho-
4B-/	su-	4f\	su-	4b-\	su-	4dd\	su-	2B-/	-ros	2f\	-rus	2dd\	-ros	2dd\	-rus
4c/	-per	4f\	-p(er)	4b-\	-per	4ee\	-per	.	.	.	.	.	.	.	.
2d\	cho-	2f\	cho-	2b-\	cho-	2ff\	cho-	2r	.	2r	.	2r	.	2r	.
2B-/	-ros	2f\	-ros	2b-\	-ros	2dd\	-ros	4B-/	su-	4f\	su-	4dd\	su-	4dd\	su-
*	*	*	*	*	*	*	*	*custos:d	*	*	*	*	*	*	*
.	.	.	.	.	.	.	.	4c/	-per	4f\	-per	4cc\	-per	4ee\	-per
!	!	!	!	!	!	!	!	!LO:LB:g=original	!	!	!	!	!	!	!
=107-	=107-	=107-	=107-	=107-	=107-	=107-	=107-	=107-	=107-	=107-	=107-	=107-	=107-	=107-	=107-
1r	.	1r	.	1r	.	1r	.	2d\	cho-	2f\	cho-	2b-\	cho-	2ff\	cho-
*	*	*	*	*	*	*	*	*	*	*custos:g	*	*	*	*	*
.	.	.	.	.	.	.	.	2B-/	-rus	2f\	-ros	2b-\	-ros	2dd\	-rus
!	!	!	!	!	!	!	!	!	!	!LO:LB:g=original	!	!	!	!	!
1.e-X	An-	1.g	An-	1.g	An-	1.b-	An-	1.e-X	An-	1.g	An-	1.b-	An-	1.ee-X	An-
=108-	=108-	=108-	=108-	=108-	=108-	=108-	=108-	=108-	=108-	=108-	=108-	=108-	=108-	=108-	=108-
2B-/	-ge-	2d/	-ge-	2b-\	-ge-	2b-/	-ge-	2f\	-ge-	2f\	-ge-	2b-\	-ge-	2dd\	-ge-
*	*	*	*	*	*	*	*	*	*	*	*	*	*	*lig	*
0F	-lo-	(2a\	-lo-	1ff	-lo-	2cc\	-lo-	0f	-lo-	0f	-lo-	2a\	-lo-	1ff	-lo-
*	*	*	*	*	*	*	*	*	*	*	*	*custos:a	*	*	*
.	.	2f\)	.	.	.	2dd\	.	.	.	.	.	1b-\	.	.	.
=109-	=109-	=109-	=109-	=109-	=109-	=109-	=109-	=109-	=109-	=109-	=109-	=109-	=109-	=109-	=109-
*	*	*	*	*custos:b-	*	*	*	*	*	*	*	*	*	*	*
.	.	0f	-rum	0f	-rum	1cc	-rum	.	.	.	.	.	.	1cc	.
!	!	!	!	!	!	!	!	!	!	!	!	!LO:LB:g=original	!	!	!
.	.	.	.	.	.	.	.	.	.	.	.	2a\	.	.	.
*	*	*	*	*	*	*	*	*	*	*	*	*	*	*Xlig	*
1B-	-rum	.	.	.	.	1b-	.	1B-	-rum	1f	-ru(m)	1b-	-rum	1dd	-rum
!	!	!	!	!LO:LB:g=original	!	!	!	!	!	!	!	!	!	!	!
=110-	=110-	=110-	=110-	=110-	=110-	=110-	=110-	=110-	=110-	=110-	=110-	=110-	=110-	=110-	=110-
*M3/2	*	*M3/2	*	*M3/2	*	*M3/2	*	*M3/2	*	*M3/2	*	*M3/2	*	*M3/2	*
0B-	Gau-	0f	Gau-	0b-	gau-	0dd	gau-	00.r	.	00.r	.	00.r	.	00.r	.
1E-X	-dent	1g	-dent	1cc	-dent	1ee-X	-dent	.	.	.	.	.	.	.	.
=111-	=111-	=111-	=111-	=111-	=111-	=111-	=111-	=111-	=111-	=111-	=111-	=111-	=111-	=111-	=111-
1.F	an-	1.f	An-	1.a	An-	1.cc	An-	.	.	.	.	.	.	.	.
2F/	-ge-	2f\	-ge-	2a\	-ge-	2cc\	-ge-	.	.	.	.	.	.	.	.
1B-	-li	1f	-li	1b-	-li	1dd	-li	.	.	.	.	.	.	.	.
=112-	=112-	=112-	=112-	=112-	=112-	=112-	=112-	=112-	=112-	=112-	=112-	=112-	=112-	=112-	=112-
00.r	.	00.r	.	00.r	.	00.r	.	00.r	.	00.r	.	0dd	Gau-	0ff	Gau-
.	.	.	.	.	.	.	.	.	.	.	.	1b-	-dent	1dd,<	-dent
=113-	=113-	=113-	=113-	=113-	=113-	=113-	=113-	=113-	=113-	=113-	=113-	=113-	=113-	=113-	=113-
*	*	*	*	*	*	*	*	*	*	*	*	*	*	*	*ij
.	.	.	.	.	.	.	.	.	.	.	.	0dd	gau-	0ff	Gau-
*	*	*	*	*	*	*	*	*	*	*	*	*	*	*custos:dd	*
.	.	.	.	.	.	.	.	.	.	.	.	1b-	-dent	1dd,<	-dent
*	*	*	*	*	*	*	*	*	*	*	*	*	*	*	*Xij
!	!	!	!	!	!	!	!	!	!	!	!	!	!	!LO:PB:g=original	!
=114-	=114-	=114-	=114-	=114-	=114-	=114-	=114-	=114-	=114-	=114-	=114-	=114-	=114-	=114-	=114-
00.r	.	00.r	.	00.r	.	00.r	.	0B-	Gau-	0f	Gau-	0b-	gau-	0dd	gau-
.	.	.	.	.	.	.	.	1F	-dent	1f	-dent	1a	-dent	1cc	-dent
=115-	=115-	=115-	=115-	=115-	=115-	=115-	=115-	=115-	=115-	=115-	=115-	=115-	=115-	=115-	=115-
.	.	.	.	.	.	.	.	1.c	An-	1.e	An-	1.g	An-	1.cc	An-
.	.	.	.	.	.	.	.	2c/	-ge-	2e/	-ge-	2g/	-ge-	2cc\	-ge-
.	.	.	.	.	.	.	.	1F	-li	1f	-li	1a	-li	1a	-li
=116-	=116-	=116-	=116-	=116-	=116-	=116-	=116-	=116-	=116-	=116-	=116-	=116-	=116-	=116-	=116-
0B-	gau-	0b-	gau-	0dd	gau-	0dd	gau-	00.r	.	00.r	.	00.r	.	00.r	.
*	*	*custos:f#	*	*	*	*custos:dd	*	*	*	*	*	*	*	*	*
1c	-dent	1a	-dent	1cc	-dent	1ee-X	-dent	.	.	.	.	.	.	.	.
!	!	!LO:LB:g=original	!	!	!	!LO:LB:g=original	!	!	!	!	!	!	!	!	!
=117-	=117-	=117-	=117-	=117-	=117-	=117-	=117-	=117-	=117-	=117-	=117-	=117-	=117-	=117-	=117-
1.d	An-	1.f#X	An-	1.a	An-	1.dd	An-	.	.	.	.	.	.	.	.
*custos:d	*	*	*	*	*	*	*	*	*	*	*	*	*	*	*
2d\	-ge-	2f#\	-ge-	2a\	-ge-	2dd\	-ge-	.	.	.	.	.	.	.	.
!LO:LB:g=original	!	!	!	!	!	!	!	!	!	!	!	!	!	!	!
1d	-li	1f#	-li	1a	-li	1dd	-li	.	.	.	.	.	.	.	.
=118-	=118-	=118-	=118-	=118-	=118-	=118-	=118-	=118-	=118-	=118-	=118-	=118-	=118-	=118-	=118-
1e-X	lau-	1g	lau-	1g	lau-	1cc	lau-	0.r	.	0.r	.	0.r	.	0.r	.
0d\	-dan-	(1g\	-dan-	0a\	-dan-	0dd\	-dan-	.	.	.	.	.	.	.	.
.	.	1f#X)	.	.	.	.	.	.	.	.	.	.	.	.	.
=119-	=119-	=119-	=119-	=119-	=119-	=119-	=119-	=119-	=119-	=119-	=119-	=119-	=119-	=119-	=119-
0G	-tes	0g	-tes	0b-	-tes	0b-	-tes	0g	gau-	0g	gau-	0b-	gau-	0dd	gau-
1r	.	1r	.	1r	.	1r	.	1eny	-dent	1g	-dent	1cc	-dent	1eeny	-dent
=120-	=120-	=120-	=120-	=120-	=120-	=120-	=120-	=120-	=120-	=120-	=120-	=120-	=120-	=120-	=120-
00.r	.	00.r	.	00.r	.	00.r	.	1.d	An-	1.a	An-	1.dd	An-	1.ffny	An-
.	.	.	.	.	.	.	.	2d\	-ge-	2a\	-ge-	2dd\	-ge-	2ff\	-ge-
.	.	.	.	.	.	.	.	1d	-li	1a	-li	1dd	-li	1ff	-li
=121-	=121-	=121-	=121-	=121-	=121-	=121-	=121-	=121-	=121-	=121-	=121-	=121-	=121-	=121-	=121-
.	.	.	.	.	.	.	.	1d	lau-	1a	lau-	1dd	lau-	1ff	lau-
.	.	.	.	.	.	.	.	0a\	-dan-	0a\	-dan-	(1dd\	-dan-	0ee\	-dan-
!	!	!	!	!	!	!	!	!	!	!	!	!LO:TX:b:t=P:problem=# below	!	!	!
.	.	.	.	.	.	.	.	.	.	.	.	1cc#X)	.	.	.
=122-	=122-	=122-	=122-	=122-	=122-	=122-	=122-	=122-	=122-	=122-	=122-	=122-	=122-	=122-	=122-
*	*	*	*	*	*	*	*	*custos:f	*	*	*	*	*	*	*
!	!	!	!	!	!	!	!	!	!	!LO:TX:b:t=P:problem=# below	!	!	!	!	!
0.r	.	0.r	.	0.r	.	0.r	.	0.d	-tes	0.f#X	-tes	0.dd	-tes	0.dd	tes
!	!	!	!	!	!	!	!	!LO:PB:g=original	!	!	!	!	!	!	!
=123-	=123-	=123-	=123-	=123-	=123-	=123-	=123-	=123-	=123-	=123-	=123-	=123-	=123-	=123-	=123-
1.B-	be-	1.fny	be-	1.b-	be-	1.dd	be-	0.r	.	0.r	.	0.r	.	0.r	.
2B-/	-ne-	2f\	-ne-	2b-\	-ne-	2dd\	-ne-	.	.	.	.	.	.	.	.
2B-/	-di-	2f\	-di-	2b-\	-di-	2dd\	-di-	.	.	.	.	.	.	.	.
2B-/	-cunt	2f\	-cunt	2b-\	-cunt	2dd\	-cunt	.	.	.	.	.	.	.	.
=124-	=124-	=124-	=124-	=124-	=124-	=124-	=124-	=124-	=124-	=124-	=124-	=124-	=124-	=124-	=124-
1.F	Do-	1.a	Do-	1.a	Do-	1.cc	Do-	1.f	be-	1.fny	be-	1.g	be-	1.ff	be-
2F/	-mi-	2a\	-mi-	2a\	-mi-	2cc\	-mi-	2f\	-ne-	2f\	-ne-	2g/	-ne-	2ff\	-ne-
*	*	*	*	*custos:cc	*	*	*	*	*	*	*	*	*	*	*
1F	-num	1a	-num	1a	-num	1cc,<	-num	2f\	-di-	2f\	-di-	2g/	-di-	2ff\	-di-
*	*	*	*	*	*	*	*	*	*	*	*	*custos:g	*	*	*
.	.	.	.	.	.	.	.	2f\	-cunt	2f\	-cunt	2g/	-cunt	2ff\	-cunt
!	!	!	!	!LO:PB:g=original	!	!	!	!	!	!	!	!LO:PB:g=original	!	!	!
=125-	=125-	=125-	=125-	=125-	=125-	=125-	=125-	=125-	=125-	=125-	=125-	=125-	=125-	=125-	=125-
1.c	be-	1.g	be-	1.cc	be-	1.cc	be-	1.c	Do-	1.g	Do-	1.g	Do-	1.ee-X	Do-
2c/	-ne-	2g\	-ne-	2cc\	-ne-	2cc\	-ne-	2c/	-mi-	2g\	-mi-	2g/	-mi-	2ee-\	-mi-
*	*	*	*	*	*	*	*	*	*	*	*	*	*	*custos:dd	*
2c/	-di-	2g\	-di-	2cc\	-di-	2cc\	-di-	1c,<	-num	1g	-num	1g	-num	1ee-	-num
2c/	-cunt	2g\	-cunt	2cc\	-cunt	2cc\	-cunt	.	.	.	.	.	.	.	.
!	!	!	!	!	!	!	!	!	!	!LO:LB:g=original	!	!	!	!LO:LB:g=original	!
=126-	=126-	=126-	=126-	=126-	=126-	=126-	=126-	=126-	=126-	=126-	=126-	=126-	=126-	=126-	=126-
1.G	D(o-	1.g	D(o-	1.b-	Do-	1.dd	Do-	1.g	be-	1.g	be-	1.b-	be-	1.dd	be-
2G/	-mi)-	2g\	-mi)-	2b-\	-mi-	2dd\	-mi-	2g\	-ne-	2g\	-ne-	2b-\	-ne-	2dd\	-ne-
1G	-num	1g	-num	1b-	-num	1dd,<	-num	2g\	-di-	2g\	-di-	2b-\	-di-	2dd\	-di-
.	.	.	.	.	.	.	.	2g\	-cunt	2g\	-cunt	2b-\	-cunt	2dd,<\	-cunt
=127-	=127-	=127-	=127-	=127-	=127-	=127-	=127-	=127-	=127-	=127-	=127-	=127-	=127-	=127-	=127-
0d	be-	0f#X	be-	0dd	be-	0dd	be-	1.d	Do-	1.a	Do-	1.a	Do-	1.dd	Do-
.	.	.	.	.	.	.	.	2d\	-mi-	2a\	-mi-	2a\	-mi-	2dd\	-mi-
*	*	*custos:g	*	*	*	*	*	*	*	*	*	*	*	*	*
1d	-ne-	1f#	-ne-	1dd	-ne-	1dd	-ne-	1d	-num	1a,<	-num	1a	-num	1dd,<	-num
!	!	!LO:PB:g=original	!	!	!	!	!	!	!	!	!	!	!	!	!
=128-	=128-	=128-	=128-	=128-	=128-	=128-	=128-	=128-	=128-	=128-	=128-	=128-	=128-	=128-	=128-
0G	-di-	0g	-di-	0dd	-di-	0dd	-di-	1.g	be-	1.g	be-	1.b-	be-	1.dd	be-
.	.	.	.	.	.	.	.	2g\	-ne-	2g\	-ne-	2b-\	-ne-	2dd\	-ne-
1G	-cunt	1g	-cunt	1dd	-cunt	1b-	-cunt	2g\	-di-	2g\	-di-	2b-\	-di-	2dd\	-di-
.	.	.	.	.	.	.	.	2g\	-cunt	2g\	-cunt	2b-\	-cunt	2dd\	-cunt
=129-	=129-	=129-	=129-	=129-	=129-	=129-	=129-	=129-	=129-	=129-	=129-	=129-	=129-	=129-	=129-
0d	D(o-	0g	Do-	0dd	Do-	0dd	Do-	0d	Do-	0a	Do-	0a	Do-	0dd	Do-
*	*	*	*	*	*	*custos:dd	*	*	*	*	*	*	*	*	*
1d	-mi)-	1f#X	-mi-	1dd	-mi-	1dd	-mi-	1d	-mi-	1a	-mi-	1a	-mi-	1dd	-mi-
!	!	!	!	!	!	!LO:PB:g=original	!	!	!	!	!	!	!	!	!
=130-	=130-	=130-	=130-	=130-	=130-	=130-	=130-	=130-	=130-	=130-	=130-	=130-	=130-	=130-	=130-
*M2/1	*	*M2/1	*	*M2/1	*	*M2/1	*	*M2/1	*	*M2/1	*	*M2/1	*	*M2/1	*
*met(C|)	*	*met(C|)	*	*met(C|)	*	*met(C|)	*	*met(C|)	*	*met(C|)	*	*met(C|)	*	*met(C|)	*
*custos:B-	*	*	*	*	*	*	*	*custos:g	*	*	*	*	*	*	*
!	!	!	!	!LO:TX:b:t=P:problem=# below	!	!	!	!	!	!	!	!	!	!	!
!	!	!	!	!LO:N:acc=#	!	!	!	!	!	!	!	!LO:N:acc=#	!	!	!
1G	-num	1g	-num	1bn	-num	1dd	-num	2g\	-num	2g\	-num	2bn,<\	-num	1dd	-num
!	!	!	!	!	!	!	!	!LO:LB:g=original	!	!	!	!	!	!	!
.	.	.	.	.	.	.	.	2g\	al-	2g\	al-	2b\	al-	.	.
!LO:PB:g=original	!	!	!	!	!	!	!	!	!	!	!	!	!	!	!
00r	.	00r	.	00r	.	00r	.	4.e\	-le-	4.g\	-le-	4.ccny\	-le-	2r	.
.	.	.	.	.	.	.	.	8e\	-lu-	8g\	-lu-	8cc\	-lu-	.	.
.	.	.	.	.	.	.	.	4f\	-ia	4a\	-ia	4a,<\	-ia	2cc\	Al-
*	*	*	*	*	*	*	*	*	*	*	*	*custos:b-	*	*	*
.	.	.	.	.	.	.	.	4f\	al-	4a\	Al-	4a\	al-	.	.
!	!	!	!	!	!	!	!	!	!	!	!	!LO:LB:g=original	!	!	!
=131-	=131-	=131-	=131-	=131-	=131-	=131-	=131-	=131-	=131-	=131-	=131-	=131-	=131-	=131-	=131-
.	.	.	.	.	.	.	.	4.d\	-le-	4.f\	-le-	4.b-y\	-le-	4.ff\	-le-
.	.	.	.	.	.	.	.	8d\	-lu-	8f\	-lu-	8b-\	-lu-	8ff\	-lu-
.	.	.	.	.	.	.	.	4e-X\	-ia	4g,<\	-ia	4g/	-ia	4b-/	-ia
.	.	.	.	.	.	.	.	4e-\	Al-	4g\	Al-	4g/	al-	4b-/	Al-
.	.	.	.	.	.	.	.	2.c/	-le-	2.a\	-le-	2.cc\	-le-	2.ee-X\	-le-
.	.	.	.	.	.	.	.	4c/	-lu-	4a\	-lu-	4cc\	-lu-	4ee-\	-lu-
=132-	=132-	=132-	=132-	=132-	=132-	=132-	=132-	=132-	=132-	=132-	=132-	=132-	=132-	=132-	=132-
*	*	*	*	*	*	*	*	*	*	*custos:b-	*	*	*	*custos:dd	*
.	.	.	.	.	.	.	.	2d\	-ia	2f\	-ia	2a,<\	-ia	4dd\	-ia
.	.	.	.	.	.	.	.	.	.	.	.	.	.	4dd\	al-
!	!	!	!	!	!	!	!	!	!	!LO:LB:g=original	!	!	!	!	!
.	.	.	.	.	.	.	.	2B-/	Al-	2b-\	Al-	2b-\	al-	4.dd\	-le-
.	.	.	.	.	.	.	.	.	.	.	.	.	.	8eeny\	-lu-
0r	.	0r	.	0r	.	0r	.	4B-/	-le-	4b-\	-le-	4dd\	-le-	2ff,<\	-ia
.	.	.	.	.	.	.	.	4c/	.	8a\L	.	4cc\	.	.	.
.	.	.	.	.	.	.	.	.	.	8g\J	.	.	.	.	.
.	.	.	.	.	.	.	.	4.d\	.	4.f\	.	4b-\	.	2ff\	al-
.	.	.	.	.	.	.	.	.	.	.	.	8a\L	.	.	.
.	.	.	.	.	.	.	.	8eny\	.	8g\	.	8g\J	.	.	.
=133-	=133-	=133-	=133-	=133-	=133-	=133-	=133-	=133-	=133-	=133-	=133-	=133-	=133-	=133-	=133-
.	.	.	.	.	.	.	.	2f\	.	4a\	.	4a\	.	4cc\	-le-
.	.	.	.	.	.	.	.	.	.	4f\	.	2b-\	.	4dd\	.
.	.	.	.	.	.	.	.	2f\	-lu-	2f\	-lu-	.	.	4.cc\	.
.	.	.	.	.	.	.	.	.	.	.	.	4a\	-lu-	.	.
.	.	.	.	.	.	.	.	.	.	.	.	.	.	8cc\	-lu-
2r	.	2r	.	2r	.	2r	.	1B-,<	-ia	1b-	-ia	1b-	-ia	1dd	-ia,
2B-/	Al-	2fny\	al-	2b-y\	Al-	2dd\	Al-	.	.	.	.	.	.	.	.
=134-	=134-	=134-	=134-	=134-	=134-	=134-	=134-	=134-	=134-	=134-	=134-	=134-	=134-	=134-	=134-
4.G/	-le-	4.g\	-le-	4.b-\	-le-	4.dd\	-le-	0r	.	0r	.	0r	.	0r	.
8G/	-lu-	8g\	-lu-	8b-\	-lu-	8dd\	-lu-	.	.	.	.	.	.	.	.
4c,</	-ia	4g,<\	-ia,	4cc\	-ia	4ee-X\	-ia	.	.	.	.	.	.	.	.
4c/	al-	4g\	al-	4cc\	al-	4ee-\	Al-	.	.	.	.	.	.	.	.
4.F/	-le-	4.f\	-le-	4.a\	-le-	4.cc\	-le-	.	.	.	.	.	.	.	.
8F/	-lu-	8f\	-lu-	8a\	-lu-	8cc\	-lu-	.	.	.	.	.	.	.	.
4B-/	-ia	4f\	-ia	4b-\	-ia	4dd\	-ia	.	.	.	.	.	.	.	.
*	*	*	*	*custos:a	*	*	*	*	*	*	*	*	*	*	*
4B-/	al-	4b-\	Al-	4b-\	al-	4dd\	Al-	.	.	.	.	.	.	.	.
!	!	!	!	!LO:LB:g=original	!	!	!	!	!	!	!	!	!	!	!
=135-	=135-	=135-	=135-	=135-	=135-	=135-	=135-	=135-	=135-	=135-	=135-	=135-	=135-	=135-	=135-
2c/	-le-	2g\	-le-	2a\	-le-	2ee-X\	-le-	1r	.	1r	.	1r	.	1r	.
2d\	-lu-	2f#X\	-lu-	2a\	-lu-	2dd\	-lu-	.	.	.	.	.	.	.	.
1G	-ia	1g	-ia	1g	-ia	1b-	-ia	2r	.	2r	.	2r	.	2r	.
.	.	.	.	.	.	.	.	2g\	al-	2g\	Al-	2b-\	al-	2dd\	Al-
=136-	=136-	=136-	=136-	=136-	=136-	=136-	=136-	=136-	=136-	=136-	=136-	=136-	=136-	=136-	=136-
1r	.	1r	.	1r	.	1r	.	2.d\	-le-	2.a\	-le-	2.dd\	-le-	2.ff\	-le-
.	.	.	.	.	.	.	.	4d\	-lu-	4a\	-lu-	4dd\	-lu-	4ff\	-lu-
*	*	*	*	*	*	*	*	*custos:c	*	*	*	*	*	*	*
2r	.	2r	.	2r	.	2r	.	1a	-ia	1a	-ia	1cc	-ia	1ee	-ia
2A/	al-	2a\	al-	2cc\	al-	2cc\	Al-	.	.	.	.	.	.	.	.
!	!	!	!	!	!	!	!	!LO:LB:g=original	!	!	!	!	!	!	!
=137-	=137-	=137-	=137-	=137-	=137-	=137-	=137-	=137-	=137-	=137-	=137-	=137-	=137-	=137-	=137-
2F/	-le-	2a\	-le-	2cc\	-le-	2dd\	-le-	1r	.	1r	.	1r	.	1r	.
!	!	!	!	!LO:N:acc=#	!	!	!	!	!	!	!	!	!	!	!
2G/	-lu-	2g\	-lu-	2bn\	-lu-	2dd\	-lu-	.	.	.	.	.	.	.	.
1c	-ia	1e	-ia	1cc	-ia	1cc	-ia	2c/	al-	2e/	al-	2g/	al-	2cc\	Al-
.	.	.	.	.	.	.	.	2.c/	-le-	2.e/	-le-	2.g/	-le-	2.cc\	le-
=138-	=138-	=138-	=138-	=138-	=138-	=138-	=138-	=138-	=138-	=138-	=138-	=138-	=138-	=138-	=138-
2r	.	2r	.	2r	.	2r	.	.	.	.	.	.	.	.	.
.	.	.	.	.	.	.	.	4c/	-lu-	4e/	-lu-	4g/	-lu-	4cc\	-lu-
*	*	*custos:f	*	*	*	*	*	*	*	*	*	*custos:a	*	*	*
2F/	al-	2fny\	al-	2a\	al-	2cc\	Al-	4f,<\	-ia	4f,<\	-ia	4a\	-ia	4cc\	-ia,
!	!	!	!	!	!	!	!	!	!	!	!	!LO:LB:g=original	!	!	!
.	.	.	.	.	.	.	.	4f\	al-	4f\	Al-	4a\	Al-	4cc\	Al-
!	!	!LO:LB:g=original	!	!	!	!	!	!	!	!	!	!	!	!	!
2.B-/	-le-	2.f\	-le-	2.f/	-le-	2.b-/	-le-	2.B-/	-le-	2.f\	-le-	2.b-\	-le-	2.dd\	-le-
4B-/	-lu-	4f\	-lu-	4f/	-lu-	4b-/	-lu-	4B-/	-lu-	4f\	-lu-	4b-\	-lu-	4ee\	-lu-
=139-	=139-	=139-	=139-	=139-	=139-	=139-	=139-	=139-	=139-	=139-	=139-	=139-	=139-	=139-	=139-
*	*	*	*	*	*	*	*	*	*	*	*	*	*	*custos:dd	*
2F/	-ia	2f\	-ia	2f/	-ia,	2a/	-ia	1f	-ia	1a	-ia	1cc	-ia	1ff	-ia
*	*	*	*	*	*	*custos:cc	*	*	*	*	*	*	*	*	*
2F/	al-	2f\	al-	2a\	al-	2a/	Al-	.	.	.	.	.	.	.	.
!	!	!	!	!	!	!LO:LB:g=original	!	!	!	!	!	!	!	!LO:LB:g=original	!
2.c/	-le-	2.e/	-le-	2.g/	-le-	2.cc\	-le-	1r	.	1r	.	1r	.	1r	.
4c/	-lu-	4f#X\	-lu-	4a\	-lu-	4cc\	-lu-	.	.	.	.	.	.	.	.
=140-	=140-	=140-	=140-	=140-	=140-	=140-	=140-	=140-	=140-	=140-	=140-	=140-	=140-	=140-	=140-
*custos:d	*	*	*	*	*	*	*	*	*	*	*	*	*	*	*
!LO:SIC:v:s=1G	!	!	!	!	!	!	!	!	!	!	!	!	!	!	!
1F	-ia	1g	-ia	1b-y	-ia	1b-	-ia	2r	.	2r	.	2r	.	2r	.
.	.	.	.	.	.	.	.	2g\	Al-	2g\	al-	2b-\	al-	2dd\	al-
!LO:LB:g=original	!	!	!	!	!	!	!	!	!	!	!	!	!	!	!
2r	.	0r	.	2r	.	2r	.	2.d\	-le-	1.f	-le-	2dd\	-le-	2.ff\	-le-
2d\	al-	.	.	2f/	Al-	2dd\	al-	.	.	.	.	2a\	-lu-	.	.
.	.	.	.	.	.	.	.	4c/	.	.	.	.	.	4ee\	.
=141-	=141-	=141-	=141-	=141-	=141-	=141-	=141-	=141-	=141-	=141-	=141-	=141-	=141-	=141-	=141-
2.d\	-le-	.	.	4.f/	-le-	2.dd\	-le-	4B-/	.	.	.	2b-,<\	-ia	4dd\	.
.	.	.	.	.	.	.	.	4A/	.	.	.	.	.	4cc\	.
.	.	.	.	8f/	-lu-	.	.	.	.	.	.	.	.	.	.
*	*	*	*	*	*	*	*	*	*	*custos:g	*	*	*	*	*
.	.	.	.	1b-\	-ia	.	.	1G/	.	2g\	-lu-	2b-\	al-	4b-/	.
4c/	.	.	.	.	.	4dd\	-lu-	.	.	.	.	.	.	4a/	.
!	!	!	!	!	!	!	!	!	!	!LO:LB:g=original	!	!	!	!	!
4B-/	.	2r	.	.	.	2dd\	-ia	.	.	1g	-ia	2.b-\	-le-	2b-/	.
4A/	.	.	.	.	.	.	.	.	.	.	.	.	.	.	.
4.G/	.	2g\	al-	2dd\	al-	2dd\	al-	2g\	-lu-	.	.	.	.	2b-/	-lu-
.	.	.	.	.	.	.	.	.	.	.	.	4b-\	-lu-	.	.
8G/	-lu-	.	.	.	.	.	.	.	.	.	.	.	.	.	.
=142-	=142-	=142-	=142-	=142-	=142-	=142-	=142-	=142-	=142-	=142-	=142-	=142-	=142-	=142-	=142-
2d\	-ia	2f#X\	-le-	4dd\	-le-	1.dd	-le-	2d\	-ia	(2a\	al-	2a,<\	-ia	2cc,<\	-ia
.	.	.	.	4cc\	.	.	.	.	.	.	.	.	.	.	.
2G/	al-	2g\	-lu-	4b-\	.	.	.	2g\	Al-	2g\)	.	2b-\	al-	(4dd\	al-
.	.	.	.	4cc\	.	.	.	.	.	.	.	.	.	4ee\)	.
1.d	-le-	2f#X\	-ia	1.dd	.	.	.	1.d	-le-	(2a\	-le-	2a\	-le-	2ff#X\	-le-
.	.	2d/	al-	.	.	2dd\	-lu-	.	.	2g\)	.	2b-\	-lu-	1gg\	.
=143-	=143-	=143-	=143-	=143-	=143-	=143-	=143-	=143-	=143-	=143-	=143-	=143-	=143-	=143-	=143-
.	.	2.d/	-le-	.	.	1dd	-ia	.	.	2.a\	.	1a	-ia	.	.
*	*	*	*	*custos:dd	*	*	*	*	*	*	*	*	*	*	*
2d\	-lu-	.	.	2dd\	-lu-	.	.	2d\	-lu-	.	.	.	.	2ff#X\	-lu-
.	.	4d/	-lu-	.	.	.	.	.	.	4a\	-lu-	.	.	.	.
*	*	*	*	*	*	*	*	*custos:g	*	*	*	*	*	*	*
!	!	!	!	!LO:LB:g=original	!	!	!	!	!	!	!	!LO:N:acc=#	!	!	!
2G/	-ia	2d/	-ia	2dd\	-ia	2r	.	2g\	-ia	1.g	-ia	1bn	al-	2gg\	-ia
!	!	!	!	!	!	!	!	!LO:LB:g=original	!	!	!	!	!	!	!
2G/	al-	(4g\	al-	2g/	al-	2dd\	Al-	2g\	Al-	.	.	.	.	2dd\	al-
.	.	4fny\)	.	.	.	.	.	.	.	.	.	.	.	.	.
=144-	=144-	=144-	=144-	=144-	=144-	=144-	=144-	=144-	=144-	=144-	=144-	=144-	=144-	=144-	=144-
2.c/	-le-	(4e-X/	-le-	2.g/	-le-	2.cc\	-le-	2.c/	-le-	.	.	2.cc\	-le-	2.ee-X\	-le-
.	.	4d/)	.	.	.	.	.	.	.	.	.	.	.	.	.
.	.	4.e-/	-lu-	.	.	.	.	.	.	2g\	Al-	.	.	.	.
4c/	-lu-	.	.	4g/	-lu-	4cc\	-lu-	4c/	-lu-	.	.	4cc\	-lu-	4ee-\	-lu-
.	.	8f\	.	.	.	.	.	.	.	.	.	.	.	.	.
*	*	*	*	*	*	*	*	*	*	*	*	*custos:b-	*	*	*
2c/	-ia,	2g\	-ia	2g/	-ia	2cc\	-ia	2c/	-ia	2.g\	-le-	2b-y\	-ia	2ee-,<\	-ia
!	!	!	!	!	!	!	!	!	!	!	!	!LO:LB:g=original	!	!	!
2G/	al-	2ryy	.	2b-\	al-	2dd\	Al-	2g\	Al-	.	.	2b-\	al-	2dd\	al-
.	.	.	.	.	.	.	.	.	.	4g\	-lu-	.	.	.	.
=145-	=145-	=145-	=145-	=145-	=145-	=145-	=145-	=145-	=145-	=145-	=145-	=145-	=145-	=145-	=145-
1.d	-le-	2f#X\	Al-	1.dd	-le-	1.dd	-le-	1.d	-le-	2a,<\	-ia	2a\	-le-	1.dd	-le-
.	.	1g\	-le-	.	.	.	.	.	.	2g\	Al-	2b-\	.	.	.
.	.	.	.	.	.	.	.	.	.	2.a\	-le-	2.a\	.	.	.
2d\	-lu-	2f#X\	-lu-	2a\	-lu-	2dd\	-lu-	2d\	-lu-	.	.	.	.	2dd\	-lu-
.	.	.	.	.	.	.	.	.	.	4a\	-lu-	4a\	-lu-	.	.
=146-	=146-	=146-	=146-	=146-	=146-	=146-	=146-	=146-	=146-	=146-	=146-	=146-	=146-	=146-	=146-
!	!	!	!	!	!	!	!	!	!	!	!	!LO:N:acc=#	!	!	!
0Gl;;	-ia	0gl;;	-ia.	0gl;;	-ia.	0ddl;;	-ia	0gl;;	-ia-	0gl;;	-ia.	0bnl;;	-ia.	0ddl;;	-ia
==	==	==	==	==	==	==	==	==	==	==	==	==	==	==	==
*-	*-	*-	*-	*-	*-	*-	*-	*-	*-	*-	*-	*-	*-	*-	*-
!!!system-decoration: [(g1)][(g2)]
!!!RDF**kern: > = above
!!!RDF**kern: < = below
!!!RDF**kern: l = terminal long
!!!ENC: Anastazja Marusiak
!!!END: 2021-10-06
!!!ENC: Andrzej Kubiczek
!!!END: 2021-10-19
